; G-Code originally generated by Simplify3D(R) Version 4.1.2
;M80 ; power supply on
G90
M82
M106 S0
M140 S65 ; custom bed temp
M190 S65 ; custom bed temp
M104 S230 T0 ; custom hot end temp - first layer
M109 S230 T0 ; custom hot end temp - first layer
G28 ; home all axes
;G29 ; probe ABL
;M420 S1 ; restore ABL mesh 
; custom start gcode
M220 S100 ;Reset Feedrate
M221 S100 ;Reset Flowrate
G28 ;Home
;Code for nozzle cleaning and flow normalization
G92 E0 ;Reset Extruder

; process Color1-6-1
; layer 1, Z = 0.200
T0
G92 E0.0000
G1 E-7 F2400 ; custom retraction
; feature skirt
; tool H0.200 W0.576
G1 Z0.400 F1200
G1 X102.305 Y92.945 F6000
G1 Z0.200 F1200
G1 E0 F2400 ; custom un-retraction/prime
G92 E0.0000
G1 X102.958 Y92.521 E0.0335 F1800
G1 X103.178 Y92.394 E0.0445
G1 X103.872 Y92.041 E0.0781
G1 X104.104 Y91.937 E0.0890
G1 X104.831 Y91.658 E0.1226
G1 X105.07300000000001 Y91.57900000000001 E0.1336
G1 X105.824 Y91.378 E0.1671
G1 X106.074 Y91.325 E0.1781
G1 X106.842 Y91.203 E0.2116
G1 X107.096 Y91.17699999999999 E0.2226
G1 X107.809 Y91.13900000000001 E0.2534
G1 X107.936 Y91.136 E0.2589
G1 X148.064 Y91.136 E1.9886
G1 X148.191 Y91.13900000000001 E1.9941
G1 X148.905 Y91.17699999999999 E2.0249
G1 X149.15800000000002 Y91.203 E2.0359
G1 X149.92700000000002 Y91.325 E2.0694
G1 X150.17700000000002 Y91.378 E2.0804
G1 X150.928 Y91.58 E2.1139
G1 X151.168 Y91.658 E2.1248
G1 X151.89499999999998 Y91.937 E2.1584
G1 X152.12900000000002 Y92.041 E2.1694
G1 X152.822 Y92.394 E2.2030
G1 X153.042 Y92.521 E2.2139
G1 X153.69400000000002 Y92.945 E2.2474
G1 X153.9 Y93.094 E2.2584
G1 X154.505 Y93.584 E2.2919
G1 X154.695 Y93.755 E2.3030
G1 X155.24599999999998 Y94.306 E2.3366
G1 X155.417 Y94.49600000000001 E2.3476
G1 X155.906 Y95.101 E2.3811
G1 X156.055 Y95.306 E2.3920
G1 X156.478 Y95.957 E2.4255
G1 X156.60500000000002 Y96.176 E2.4364
G1 X156.959 Y96.87 E2.4700
G1 X157.064 Y97.107 E2.4812
G1 X157.34199999999998 Y97.833 E2.5147
G1 X157.42000000000002 Y98.071 E2.5255
G1 X157.62099999999998 Y98.821 E2.5589
G1 X157.675 Y99.072 E2.5700
G1 X157.797 Y99.842 E2.6036
G1 X157.824 Y100.098 E2.6147
G1 X157.861 Y100.812 E2.6455
G1 X157.864 Y100.937 E2.6509
G1 X157.864 Y109.063 E3.0012
G1 X157.861 Y109.188 E3.0066
G1 X157.824 Y109.902 E3.0374
G1 X157.797 Y110.158 E3.0485
G1 X157.675 Y110.928 E3.0821
G1 X157.62099999999998 Y111.179 E3.0932
G1 X157.42000000000002 Y111.929 E3.1267
G1 X157.34199999999998 Y112.167 E3.1374
G1 X157.064 Y112.893 E3.1709
G1 X156.959 Y113.13 E3.1821
G1 X156.60500000000002 Y113.824 E3.2157
G1 X156.478 Y114.043 E3.2266
G1 X156.055 Y114.694 E3.2601
G1 X155.906 Y114.899 E3.2710
G1 X155.417 Y115.50399999999999 E3.3045
G1 X155.24599999999998 Y115.694 E3.3156
G1 X154.695 Y116.245 E3.3491
G1 X154.505 Y116.416 E3.3602
G1 X153.9 Y116.906 E3.3937
G1 X153.69400000000002 Y117.055 E3.4047
G1 X153.042 Y117.479 E3.4382
G1 X152.822 Y117.606 E3.4491
G1 X152.12900000000002 Y117.959 E3.4827
G1 X151.89499999999998 Y118.063 E3.4937
G1 X151.16899999999998 Y118.342 E3.5273
G1 X150.928 Y118.42 E3.5382
G1 X150.17700000000002 Y118.622 E3.5717
G1 X149.92700000000002 Y118.675 E3.5827
G1 X149.15800000000002 Y118.797 E3.6163
G1 X148.905 Y118.82300000000001 E3.6273
G1 X148.191 Y118.86099999999999 E3.6581
G1 X148.064 Y118.864 E3.6635
G1 X107.936 Y118.864 E5.3932
G1 X107.809 Y118.86099999999999 E5.3987
G1 X107.096 Y118.82300000000001 E5.4295
G1 X106.842 Y118.797 E5.4405
G1 X106.074 Y118.675 E5.4740
G1 X105.824 Y118.622 E5.4850
G1 X105.07300000000001 Y118.42099999999999 E5.5186
G1 X104.831 Y118.342 E5.5295
G1 X104.104 Y118.063 E5.5631
G1 X103.872 Y117.959 E5.5741
G1 X103.178 Y117.606 E5.6076
G1 X102.958 Y117.479 E5.6186
G1 X102.305 Y117.055 E5.6521
G1 X102.099 Y116.905 E5.6631
G1 X101.494 Y116.416 E5.6966
G1 X101.305 Y116.245 E5.7076
G1 X100.755 Y115.695 E5.7412
G1 X100.584 Y115.506 E5.7521
G1 X100.095 Y114.90100000000001 E5.7857
G1 X99.945 Y114.695 E5.7967
G1 X99.521 Y114.042 E5.8302
G1 X99.394 Y113.822 E5.8412
G1 X99.041 Y113.128 E5.8747
G1 X98.937 Y112.896 E5.8857
G1 X98.658 Y112.169 E5.9192
G1 X98.57900000000001 Y111.92699999999999 E5.9302
G1 X98.378 Y111.175 E5.9638
G1 X98.325 Y110.926 E5.9747
G1 X98.203 Y110.158 E6.0083
G1 X98.17699999999999 Y109.904 E6.0193
G1 X98.139 Y109.191 E6.0501
G1 X98.136 Y109.064 E6.0556
G1 X98.136 Y100.936 E6.4059
G1 X98.139 Y100.809 E6.4114
G1 X98.17699999999999 Y100.096 E6.4422
G1 X98.203 Y99.842 E6.4532
G1 X98.325 Y99.074 E6.4867
G1 X98.378 Y98.825 E6.4977
G1 X98.57900000000001 Y98.07300000000001 E6.5312
G1 X98.658 Y97.831 E6.5422
G1 X98.937 Y97.104 E6.5757
G1 X99.041 Y96.872 E6.5867
G1 X99.394 Y96.178 E6.6202
G1 X99.521 Y95.958 E6.6312
G1 X99.945 Y95.305 E6.6648
G1 X100.095 Y95.09899999999999 E6.6758
G1 X100.584 Y94.494 E6.7093
G1 X100.755 Y94.305 E6.7203
G1 X101.305 Y93.755 E6.7538
G1 X101.494 Y93.584 E6.7648
G1 X102.099 Y93.095 E6.7983
G1 X102.305 Y92.945 E6.8093
G92 E0.0000
G1 E-7 F2400 ; custom retraction
G1 Z0.600 F1200
G1 X102.632 Y93.42 F6000
G1 Z0.200 F1200
G1 E0 F2400 ; custom un-retraction/prime
G92 E0.0000
G1 X103.259 Y93.013 E0.0322 F1800
G1 X103.453 Y92.9 E0.0419
G1 X104.12 Y92.561 E0.0742
G1 X104.325 Y92.469 E0.0838
G1 X105.023 Y92.201 E0.1161
G1 X105.237 Y92.132 E0.1258
G1 X105.959 Y91.938 E0.1580
G1 X106.179 Y91.892 E0.1677
G1 X106.918 Y91.775 E0.1999
G1 X107.14099999999999 Y91.751 E0.2096
G1 X107.832 Y91.715 E0.2394
G1 X107.944 Y91.712 E0.2443
G1 X148.05599999999998 Y91.712 E1.9733
G1 X148.168 Y91.715 E1.9781
G1 X148.85899999999998 Y91.751 E2.0080
G1 X149.083 Y91.775 E2.0176
G1 X149.822 Y91.892 E2.0499
G1 X150.042 Y91.938 E2.0596
G1 X150.764 Y92.132 E2.0918
G1 X150.976 Y92.201 E2.1014
G1 X151.675 Y92.469 E2.1337
G1 X151.881 Y92.561 E2.1434
G1 X152.547 Y92.90100000000001 E2.1757
G1 X152.74099999999999 Y93.013 E2.1853
G1 X153.368 Y93.42 E2.2175
G1 X153.549 Y93.551 E2.2272
G1 X154.131 Y94.02199999999999 E2.2594
G1 X154.299 Y94.173 E2.2692
G1 X154.828 Y94.702 E2.3014
G1 X154.97899999999998 Y94.87 E2.3112
G1 X155.449 Y95.451 E2.3434
G1 X155.57999999999998 Y95.632 E2.3530
G1 X155.987 Y96.25800000000001 E2.3852
G1 X156.099 Y96.451 E2.3948
G1 X156.439 Y97.119 E2.4271
G1 X156.53199999999998 Y97.327 E2.4370
G1 X156.799 Y98.025 E2.4692
G1 X156.86700000000002 Y98.235 E2.4787
G1 X157.061 Y98.956 E2.5108
G1 X157.108 Y99.17699999999999 E2.5206
G1 X157.226 Y99.917 E2.5529
G1 X157.249 Y100.143 E2.5627
G1 X157.285 Y100.834 E2.5925
G1 X157.288 Y100.945 E2.5973
G1 X157.288 Y109.055 E2.9469
G1 X157.285 Y109.166 E2.9517
G1 X157.249 Y109.857 E2.9815
G1 X157.226 Y110.083 E2.9913
G1 X157.108 Y110.82300000000001 E3.0236
G1 X157.061 Y111.044 E3.0333
G1 X156.86700000000002 Y111.765 E3.0655
G1 X156.799 Y111.975 E3.0750
G1 X156.53199999999998 Y112.673 E3.1072
G1 X156.439 Y112.881 E3.1171
G1 X156.099 Y113.549 E3.1494
G1 X155.987 Y113.74199999999999 E3.1590
G1 X155.57999999999998 Y114.368 E3.1912
G1 X155.449 Y114.549 E3.2008
G1 X154.97899999999998 Y115.13 E3.2330
G1 X154.828 Y115.298 E3.2428
G1 X154.299 Y115.827 E3.2750
G1 X154.131 Y115.97800000000001 E3.2848
G1 X153.549 Y116.449 E3.3170
G1 X153.368 Y116.58 E3.3267
G1 X152.74099999999999 Y116.987 E3.3589
G1 X152.547 Y117.09899999999999 E3.3685
G1 X151.881 Y117.439 E3.4008
G1 X151.675 Y117.531 E3.4105
G1 X150.976 Y117.799 E3.4427
G1 X150.764 Y117.868 E3.4524
G1 X150.042 Y118.062 E3.4846
G1 X149.822 Y118.108 E3.4943
G1 X149.083 Y118.225 E3.5265
G1 X148.85899999999998 Y118.249 E3.5362
G1 X148.168 Y118.285 E3.5661
G1 X148.05599999999998 Y118.288 E3.5709
G1 X107.944 Y118.288 E5.2999
G1 X107.832 Y118.285 E5.3048
G1 X107.14099999999999 Y118.249 E5.3346
G1 X106.918 Y118.225 E5.3443
G1 X106.179 Y118.108 E5.3765
G1 X105.959 Y118.062 E5.3862
G1 X105.237 Y117.868 E5.4184
G1 X105.023 Y117.799 E5.4281
G1 X104.325 Y117.531 E5.4604
G1 X104.12 Y117.439 E5.4700
G1 X103.453 Y117.1 E5.5023
G1 X103.259 Y116.987 E5.5120
G1 X102.632 Y116.58 E5.5442
G1 X102.45 Y116.44800000000001 E5.5539
G1 X101.869 Y115.97800000000001 E5.5861
G1 X101.701 Y115.827 E5.5958
G1 X101.173 Y115.298 E5.6281
G1 X101.023 Y115.131 E5.6377
G1 X100.55199999999999 Y114.55 E5.6700
G1 X100.42 Y114.368 E5.6796
G1 X100.012 Y113.741 E5.7119
G1 X99.9 Y113.547 E5.7216
G1 X99.561 Y112.88 E5.7538
G1 X99.469 Y112.675 E5.7635
G1 X99.201 Y111.977 E5.7957
G1 X99.132 Y111.763 E5.8054
G1 X98.938 Y111.041 E5.8376
G1 X98.892 Y110.821 E5.8473
G1 X98.775 Y110.083 E5.8796
G1 X98.751 Y109.85900000000001 E5.8892
G1 X98.715 Y109.168 E5.9191
G1 X98.712 Y109.056 E5.9239
G1 X98.712 Y100.944 E6.2736
G1 X98.715 Y100.832 E6.2784
G1 X98.751 Y100.14099999999999 E6.3082
G1 X98.775 Y99.917 E6.3179
G1 X98.892 Y99.179 E6.3502
G1 X98.938 Y98.959 E6.3598
G1 X99.132 Y98.237 E6.3921
G1 X99.201 Y98.023 E6.4018
G1 X99.469 Y97.325 E6.4340
G1 X99.561 Y97.12 E6.4437
G1 X99.9 Y96.453 E6.4759
G1 X100.012 Y96.259 E6.4856
G1 X100.42 Y95.632 E6.5178
G1 X100.55199999999999 Y95.45 E6.5275
G1 X101.023 Y94.868 E6.5598
G1 X101.173 Y94.702 E6.5694
G1 X101.701 Y94.173 E6.6017
G1 X101.869 Y94.02199999999999 E6.6114
G1 X102.45 Y93.55199999999999 E6.6436
G1 X102.632 Y93.42 E6.6533
G92 E0.0000
G1 E-7 F2400 ; custom retraction
; feature inner perimeter
G1 Z0.600 F1200
G1 X105.231 Y97.188 F6000
G1 X105.25 Y97.176
G1 X105.90899999999999 Y98.122
G1 Z0.200 F1200
G1 E0 F2400 ; custom un-retraction/prime
G92 E0.0000
G1 X106.221 Y97.919 E0.0161 F1350
G1 X106.553 Y97.75 E0.0321
G1 X106.901 Y97.616 E0.0482
G1 X107.26 Y97.52000000000001 E0.0642
G1 X107.628 Y97.461 E0.0803
G1 X108.038 Y97.44 E0.0979
G1 X147.962 Y97.44 E1.8189
G1 X148.372 Y97.461 E1.8366
G1 X148.74 Y97.52000000000001 E1.8527
G1 X149.099 Y97.616 E1.8687
G1 X149.44799999999998 Y97.75 E1.8848
G1 X149.779 Y97.919 E1.9008
G1 X150.09199999999998 Y98.122 E1.9169
G1 X150.381 Y98.356 E1.9329
G1 X150.644 Y98.619 E1.9490
G1 X150.878 Y98.908 E1.9650
G1 X151.08100000000002 Y99.221 E1.9811
G1 X151.251 Y99.553 E1.9971
G1 X151.38400000000001 Y99.90100000000001 E2.0132
G1 X151.481 Y100.261 E2.0293
G1 X151.539 Y100.628 E2.0453
G1 X151.56 Y101.037 E2.0629
G1 X151.56 Y108.963 E2.4046
G1 X151.539 Y109.372 E2.4223
G1 X151.481 Y109.739 E2.4383
G1 X151.38400000000001 Y110.09899999999999 E2.4544
G1 X151.251 Y110.447 E2.4704
G1 X151.08100000000002 Y110.779 E2.4864
G1 X150.878 Y111.092 E2.5025
G1 X150.644 Y111.381 E2.5186
G1 X150.381 Y111.644 E2.5346
G1 X150.09199999999998 Y111.878 E2.5507
G1 X149.779 Y112.081 E2.5667
G1 X149.44799999999998 Y112.25 E2.5828
G1 X149.099 Y112.384 E2.5988
G1 X148.74 Y112.47999999999999 E2.6149
G1 X148.372 Y112.539 E2.6309
G1 X147.962 Y112.56 E2.6486
G1 X108.038 Y112.56 E4.3696
G1 X107.628 Y112.539 E4.3873
G1 X107.26 Y112.47999999999999 E4.4033
G1 X106.901 Y112.384 E4.4194
G1 X106.553 Y112.25 E4.4354
G1 X106.221 Y112.081 E4.4515
G1 X105.90899999999999 Y111.878 E4.4675
G1 X105.619 Y111.644 E4.4836
G1 X105.356 Y111.381 E4.4996
G1 X105.121 Y111.09100000000001 E4.5157
G1 X104.919 Y110.779 E4.5317
G1 X104.75 Y110.447 E4.5478
G1 X104.616 Y110.1 E4.5638
G1 X104.52 Y109.74000000000001 E4.5799
G1 X104.461 Y109.372 E4.5959
G1 X104.44 Y108.962 E4.6136
G1 X104.44 Y101.038 E4.9552
G1 X104.461 Y100.628 E4.9729
G1 X104.52 Y100.25999999999999 E4.9890
G1 X104.616 Y99.9 E5.0050
G1 X104.75 Y99.553 E5.0211
G1 X104.919 Y99.221 E5.0371
G1 X105.121 Y98.90899999999999 E5.0532
G1 X105.356 Y98.619 E5.0692
G1 X105.619 Y98.356 E5.0853
G1 X105.90899999999999 Y98.122 E5.1013
G1 X105.57 Y97.655 F6000
G92 E0.0000
G1 X105.93299999999999 Y97.419 E0.0187 F1350
G1 X106.318 Y97.223 E0.0373
G1 X106.72200000000001 Y97.068 E0.0560
G1 X107.14 Y96.956 E0.0746
G1 X107.568 Y96.888 E0.0933
G1 X108.023 Y96.864 E0.1129
G1 X147.977 Y96.864 E1.8352
G1 X148.433 Y96.888 E1.8548
G1 X148.86 Y96.956 E1.8735
G1 X149.27800000000002 Y97.068 E1.8921
G1 X149.68200000000002 Y97.223 E1.9108
G1 X150.067 Y97.419 E1.9294
G1 X150.43099999999998 Y97.655 E1.9481
G1 X150.767 Y97.92699999999999 E1.9667
G1 X151.07299999999998 Y98.233 E1.9854
G1 X151.345 Y98.569 E2.0040
G1 X151.58100000000002 Y98.93299999999999 E2.0227
G1 X151.77800000000002 Y99.318 E2.0414
G1 X151.93200000000002 Y99.72200000000001 E2.0600
G1 X152.04500000000002 Y100.14099999999999 E2.0787
G1 X152.112 Y100.568 E2.0973
G1 X152.136 Y101.02199999999999 E2.1169
G1 X152.136 Y108.97800000000001 E2.4599
G1 X152.112 Y109.432 E2.4795
G1 X152.04500000000002 Y109.85900000000001 E2.4981
G1 X151.93200000000002 Y110.27799999999999 E2.5168
G1 X151.77800000000002 Y110.682 E2.5355
G1 X151.58100000000002 Y111.06700000000001 E2.5541
G1 X151.345 Y111.431 E2.5728
G1 X151.07299999999998 Y111.767 E2.5914
G1 X150.767 Y112.07300000000001 E2.6101
G1 X150.43099999999998 Y112.345 E2.6287
G1 X150.067 Y112.581 E2.6474
G1 X149.68200000000002 Y112.777 E2.6660
G1 X149.27800000000002 Y112.932 E2.6847
G1 X148.86 Y113.044 E2.7033
G1 X148.433 Y113.112 E2.7220
G1 X147.977 Y113.136 E2.7416
G1 X108.023 Y113.136 E4.4639
G1 X107.568 Y113.112 E4.4835
G1 X107.14 Y113.044 E4.5022
G1 X106.72200000000001 Y112.932 E4.5208
G1 X106.318 Y112.777 E4.5395
G1 X105.93299999999999 Y112.581 E4.5582
G1 X105.57 Y112.345 E4.5768
G1 X105.233 Y112.07300000000001 E4.5955
G1 X104.92699999999999 Y111.767 E4.6141
G1 X104.655 Y111.43 E4.6328
G1 X104.419 Y111.06700000000001 E4.6514
G1 X104.223 Y110.682 E4.6701
G1 X104.068 Y110.27799999999999 E4.6887
G1 X103.956 Y109.86 E4.7074
G1 X103.888 Y109.432 E4.7261
G1 X103.864 Y108.977 E4.7457
G1 X103.864 Y101.023 E5.0886
G1 X103.888 Y100.568 E5.1082
G1 X103.956 Y100.14 E5.1269
G1 X104.068 Y99.72200000000001 E5.1455
G1 X104.223 Y99.318 E5.1642
G1 X104.419 Y98.93299999999999 E5.1828
G1 X104.655 Y98.57 E5.2015
G1 X104.92699999999999 Y98.233 E5.2202
G1 X105.233 Y97.92699999999999 E5.2388
G1 X105.57 Y97.655 E5.2575
; feature outer perimeter
G1 X105.231 Y97.188 F6000
G92 E0.0000
G1 X105.644 Y96.92 E0.0213 F900
G1 X106.084 Y96.696 E0.0425
G1 X106.544 Y96.519 E0.0638
G1 X107.02 Y96.39099999999999 E0.0850
G1 X107.507 Y96.314 E0.1063
G1 X108.008 Y96.288 E0.1279
G1 X147.99200000000002 Y96.288 E1.8514
G1 X148.493 Y96.314 E1.8730
G1 X148.98000000000002 Y96.39099999999999 E1.8943
G1 X149.45600000000002 Y96.519 E1.9155
G1 X149.917 Y96.696 E1.9368
G1 X150.356 Y96.92 E1.9580
G1 X150.76999999999998 Y97.188 E1.9793
G1 X151.15300000000002 Y97.499 E2.0006
G1 X151.502 Y97.84700000000001 E2.0218
G1 X151.812 Y98.22999999999999 E2.0431
G1 X152.07999999999998 Y98.644 E2.0643
G1 X152.305 Y99.084 E2.0856
G1 X152.481 Y99.544 E2.1069
G1 X152.60899999999998 Y100.021 E2.1281
G1 X152.686 Y100.507 E2.1494
G1 X152.712 Y101.00800000000001 E2.1710
G1 X152.712 Y108.99199999999999 E2.5152
G1 X152.686 Y109.493 E2.5367
G1 X152.60899999999998 Y109.979 E2.5580
G1 X152.481 Y110.456 E2.5793
G1 X152.304 Y110.916 E2.6005
G1 X152.07999999999998 Y111.356 E2.6218
G1 X151.812 Y111.769 E2.6430
G1 X151.502 Y112.15299999999999 E2.6643
G1 X151.15300000000002 Y112.501 E2.6855
G1 X150.76999999999998 Y112.812 E2.7068
G1 X150.356 Y113.08 E2.7281
G1 X149.917 Y113.304 E2.7493
G1 X149.45600000000002 Y113.481 E2.7706
G1 X148.98000000000002 Y113.60900000000001 E2.7918
G1 X148.493 Y113.686 E2.8131
G1 X147.99200000000002 Y113.712 E2.8347
G1 X108.008 Y113.712 E4.5582
G1 X107.508 Y113.686 E4.5798
G1 X107.02 Y113.60900000000001 E4.6011
G1 X106.544 Y113.481 E4.6223
G1 X106.084 Y113.304 E4.6436
G1 X105.644 Y113.08 E4.6649
G1 X105.231 Y112.812 E4.6861
G1 X104.84700000000001 Y112.501 E4.7074
G1 X104.499 Y112.15299999999999 E4.7286
G1 X104.188 Y111.769 E4.7499
G1 X103.92 Y111.356 E4.7711
G1 X103.696 Y110.916 E4.7924
G1 X103.519 Y110.456 E4.8137
G1 X103.39099999999999 Y109.97999999999999 E4.8349
G1 X103.314 Y109.493 E4.8562
G1 X103.288 Y108.99199999999999 E4.8778
G1 X103.288 Y101.00800000000001 E5.2219
G1 X103.314 Y100.507 E5.2435
G1 X103.39099999999999 Y100.02000000000001 E5.2648
G1 X103.519 Y99.544 E5.2861
G1 X103.696 Y99.084 E5.3073
G1 X103.92 Y98.644 E5.3286
G1 X104.188 Y98.231 E5.3498
G1 X104.499 Y97.84700000000001 E5.3711
G1 X104.84700000000001 Y97.499 E5.3923
G1 X105.231 Y97.188 E5.4136
; feature solid layer
G1 X105.985 Y111.49600000000001 F6000
G92 E0.0000
G1 X105.504 Y111.015 E0.0294 F1440
G1 X105.402 Y110.888 E0.0364
G1 X105.218 Y110.606 E0.0509
G1 X105.066 Y110.306 E0.0654
G1 X104.945 Y109.99199999999999 E0.0799
G1 X104.858 Y109.668 E0.0943
G1 X104.837 Y109.533 E0.1002
G1 X107.467 Y112.163 E0.2606
G1 X107.664 Y112.194 E0.2692
G1 X108.047 Y112.214 E0.2857
G1 X108.333 Y112.214 E0.2980
G1 X104.786 Y108.667 E0.5143
G1 X104.786 Y107.852 E0.5494
G1 X109.148 Y112.214 E0.8153
G1 X109.962 Y112.214 E0.8504
G1 X104.786 Y107.038 E1.1660
G1 X104.786 Y106.223 E1.2011
G1 X110.777 Y112.214 E1.5663
G1 X111.59100000000001 Y112.214 E1.6014
G1 X104.786 Y105.40899999999999 E2.0163
G1 X104.786 Y104.594 E2.0514
G1 X112.406 Y112.214 E2.5160
G1 X113.221 Y112.214 E2.5511
G1 X104.786 Y103.779 E3.0653
G1 X104.786 Y102.965 E3.1004
G1 X114.035 Y112.214 E3.6642
G1 X114.85 Y112.214 E3.6993
G1 X104.786 Y102.15 E4.3128
G1 X104.786 Y101.336 E4.3480
G1 X115.664 Y112.214 E5.0111
G1 X116.479 Y112.214 E5.0462
G1 X104.822 Y100.55799999999999 E5.7568
G1 X104.858 Y100.332 E5.7667
G1 X104.945 Y100.007 E5.7812
G1 X104.98400000000001 Y99.905 E5.7859
G1 X117.293 Y112.214 E6.5362
G1 X118.108 Y112.214 E6.5713
G1 X105.246 Y99.352 E7.3554
G1 X105.401 Y99.112 E7.3678
G1 X105.589 Y98.881 E7.3806
G1 X118.923 Y112.214 E8.1934
G1 X119.737 Y112.214 E8.2285
G1 X106.008 Y98.485 E9.0654
G1 X106.112 Y98.402 E9.0712
G1 X106.394 Y98.218 E9.0857
G1 X106.501 Y98.164 E9.0909
G1 X120.55199999999999 Y112.214 E9.9474
G1 X121.366 Y112.214 E9.9825
G1 X107.078 Y97.926 E10.8535
G1 X107.332 Y97.858 E10.8648
G1 X107.664 Y97.806 E10.8793
G1 X107.767 Y97.8 E10.8838
G1 X122.181 Y112.214 E11.7625
G1 X122.99600000000001 Y112.214 E11.7976
G1 X108.56700000000001 Y97.786 E12.6771
G1 X109.381 Y97.786 E12.7123
G1 X123.81 Y112.214 E13.5918
G1 X124.625 Y112.214 E13.6269
G1 X110.196 Y97.786 E14.5065
G1 X111.011 Y97.786 E14.5416
G1 X125.439 Y112.214 E15.4212
G1 X126.25399999999999 Y112.214 E15.4563
G1 X111.825 Y97.786 E16.3359
G1 X112.64 Y97.786 E16.3710
G1 X127.069 Y112.214 E17.2506
G1 X127.88300000000001 Y112.214 E17.2857
G1 X113.45400000000001 Y97.786 E18.1653
G1 X114.269 Y97.786 E18.2004
G1 X128.698 Y112.214 E19.0800
G1 X129.512 Y112.214 E19.1151
G1 X115.084 Y97.786 E19.9947
G1 X115.898 Y97.786 E20.0298
G1 X130.327 Y112.214 E20.9094
G1 X131.141 Y112.214 E20.9445
G1 X116.713 Y97.786 E21.8240
G1 X117.527 Y97.786 E21.8592
G1 X131.95600000000002 Y112.214 E22.7387
G1 X132.77100000000002 Y112.214 E22.7738
G1 X118.342 Y97.786 E23.6534
G1 X119.156 Y97.786 E23.6885
G1 X133.585 Y112.214 E24.5681
G1 X134.4 Y112.214 E24.6032
G1 X119.971 Y97.786 E25.4828
G1 X120.786 Y97.786 E25.5179
G1 X135.214 Y112.214 E26.3975
G1 X136.029 Y112.214 E26.4326
G1 X121.6 Y97.786 E27.3122
G1 X122.41499999999999 Y97.786 E27.3473
G1 X136.844 Y112.214 E28.2269
G1 X137.65800000000002 Y112.214 E28.2620
G1 X123.229 Y97.786 E29.1416
G1 X124.044 Y97.786 E29.1767
G1 X138.473 Y112.214 E30.0563
G1 X139.287 Y112.214 E30.0914
G1 X124.85900000000001 Y97.786 E30.9709
G1 X125.673 Y97.786 E31.0061
G1 X140.102 Y112.214 E31.8856
G1 X140.917 Y112.214 E31.9207
G1 X126.488 Y97.786 E32.8003
G1 X127.30199999999999 Y97.786 E32.8354
G1 X141.731 Y112.214 E33.7150
G1 X142.546 Y112.214 E33.7501
G1 X128.117 Y97.786 E34.6297
G1 X128.93099999999998 Y97.786 E34.6648
G1 X143.36 Y112.214 E35.5444
G1 X144.175 Y112.214 E35.5795
G1 X129.746 Y97.786 E36.4591
G1 X130.561 Y97.786 E36.4942
G1 X144.989 Y112.214 E37.3738
G1 X145.804 Y112.214 E37.4089
G1 X131.375 Y97.786 E38.2885
G1 X132.19 Y97.786 E38.3236
G1 X146.619 Y112.214 E39.2032
G1 X147.433 Y112.214 E39.2383
G1 X133.004 Y97.786 E40.1178
G1 X133.81900000000002 Y97.786 E40.1530
G1 X148.233 Y112.2 E41.0316
G1 X148.336 Y112.194 E41.0361
G1 X148.668 Y112.142 E41.0506
G1 X148.922 Y112.074 E41.0619
G1 X134.63400000000001 Y97.786 E41.9329
G1 X135.448 Y97.786 E41.9680
G1 X149.499 Y111.836 E42.8245
G1 X149.606 Y111.782 E42.8297
G1 X149.888 Y111.598 E42.8442
G1 X149.99200000000002 Y111.515 E42.8500
G1 X136.263 Y97.786 E43.6869
G1 X137.077 Y97.786 E43.7220
G1 X150.411 Y111.119 E44.5348
G1 X150.598 Y110.888 E44.5476
G1 X150.75400000000002 Y110.648 E44.5600
G1 X137.892 Y97.786 E45.3441
G1 X138.707 Y97.786 E45.3792
G1 X151.01600000000002 Y110.095 E46.1296
G1 X151.055 Y109.993 E46.1343
G1 X151.142 Y109.667 E46.1488
G1 X151.178 Y109.44200000000001 E46.1586
G1 X139.52100000000002 Y97.786 E46.8692
G1 X140.336 Y97.786 E46.9043
G1 X151.214 Y108.664 E47.5675
G1 X151.214 Y107.85 E47.6026
G1 X141.15 Y97.786 E48.2161
G1 X141.965 Y97.786 E48.2512
G1 X151.214 Y107.035 E48.8151
G1 X151.214 Y106.221 E48.8502
G1 X142.779 Y97.786 E49.3644
G1 X143.594 Y97.786 E49.3995
G1 X151.214 Y105.406 E49.8640
G1 X151.214 Y104.59100000000001 E49.8991
G1 X144.409 Y97.786 E50.3140
G1 X145.223 Y97.786 E50.3491
G1 X151.214 Y103.777 E50.7143
G1 X151.214 Y102.962 E50.7494
G1 X146.038 Y97.786 E51.0650
G1 X146.852 Y97.786 E51.1001
G1 X151.214 Y102.148 E51.3660
G1 X151.214 Y101.333 E51.4011
G1 X147.667 Y97.786 E51.6174
G1 X147.953 Y97.786 E51.6297
G1 X148.336 Y97.806 E51.6463
G1 X148.53300000000002 Y97.837 E51.6548
G1 X151.163 Y100.468 E51.8152
G1 X151.142 Y100.333 E51.8211
G1 X151.055 Y100.007 E51.8356
G1 X150.934 Y99.693 E51.8501
G1 X150.78199999999998 Y99.39500000000001 E51.8646
G1 X150.598 Y99.112 E51.8791
G1 X150.49599999999998 Y98.98599999999999 E51.8861
G1 X150.014 Y98.503 E51.9155
G92 E0.0000
G1 E-7 F2400 ; custom retraction
; layer 2, Z = 0.400
M104 S225 T0 ; custom hot end temp - A
M106 S255 ; custom fan 100% from layer 2
; feature inner perimeter
; tool H0.200 W0.480
G1 Z0.600 F1200
G1 X150.233 Y97.92699999999999 F6000
G1 Z0.400 F1200
G1 E0 F2400 ; custom un-retraction/prime
G92 E0.0000
G1 X150.542 Y98.17699999999999 E0.0143 F2700
G1 X150.82299999999998 Y98.458 E0.0285
G1 X151.07299999999998 Y98.767 E0.0428
G1 X151.29000000000002 Y99.101 E0.0571
G1 X151.47 Y99.455 E0.0714
G1 X151.612 Y99.826 E0.0857
G1 X151.716 Y100.211 E0.1000
G1 X151.77800000000002 Y100.60300000000001 E0.1142
G1 X151.8 Y101.031 E0.1296
G1 X151.8 Y108.969 E0.4148
G1 X151.77800000000002 Y109.39699999999999 E0.4302
G1 X151.716 Y109.789 E0.4444
G1 X151.612 Y110.174 E0.4587
G1 X151.47 Y110.545 E0.4730
G1 X151.29000000000002 Y110.899 E0.4873
G1 X151.07299999999998 Y111.233 E0.5016
G1 X150.82299999999998 Y111.542 E0.5159
G1 X150.542 Y111.82300000000001 E0.5301
G1 X150.233 Y112.07300000000001 E0.5444
G1 X149.899 Y112.28999999999999 E0.5587
G1 X149.54500000000002 Y112.47 E0.5730
G1 X149.174 Y112.612 E0.5873
G1 X148.79000000000002 Y112.715 E0.6016
G1 X148.397 Y112.77799999999999 E0.6158
G1 X147.969 Y112.8 E0.6313
G1 X108.031 Y112.8 E2.0658
G1 X107.60300000000001 Y112.77799999999999 E2.0812
G1 X107.21000000000001 Y112.715 E2.0955
G1 X106.826 Y112.612 E2.1098
G1 X106.455 Y112.47 E2.1241
G1 X106.101 Y112.289 E2.1384
G1 X105.767 Y112.07300000000001 E2.1527
G1 X105.458 Y111.82300000000001 E2.1669
G1 X105.17699999999999 Y111.542 E2.1812
G1 X104.92699999999999 Y111.233 E2.1955
G1 X104.711 Y110.899 E2.2098
G1 X104.53 Y110.545 E2.2241
G1 X104.388 Y110.174 E2.2383
G1 X104.285 Y109.78999999999999 E2.2526
G1 X104.22200000000001 Y109.39699999999999 E2.2669
G1 X104.2 Y108.969 E2.2823
G1 X104.2 Y101.031 E2.5674
G1 X104.22200000000001 Y100.60300000000001 E2.5828
G1 X104.285 Y100.21000000000001 E2.5971
G1 X104.388 Y99.826 E2.6114
G1 X104.53 Y99.455 E2.6257
G1 X104.711 Y99.101 E2.6400
G1 X104.92699999999999 Y98.767 E2.6542
G1 X105.17699999999999 Y98.458 E2.6685
G1 X105.458 Y98.17699999999999 E2.6828
G1 X105.767 Y97.92699999999999 E2.6971
G1 X106.101 Y97.711 E2.7114
G1 X106.455 Y97.53 E2.7257
G1 X106.826 Y97.388 E2.7399
G1 X107.21000000000001 Y97.285 E2.7542
G1 X107.60300000000001 Y97.22200000000001 E2.7685
G1 X108.031 Y97.2 E2.7839
G1 X147.969 Y97.2 E4.2185
G1 X148.397 Y97.22200000000001 E4.2339
G1 X148.79000000000002 Y97.285 E4.2482
G1 X149.174 Y97.388 E4.2625
G1 X149.54500000000002 Y97.53 E4.2768
G1 X149.899 Y97.71000000000001 E4.2910
G1 X150.233 Y97.92699999999999 E4.3053
G1 X150.515 Y97.538 F6000
G92 E0.0000
G1 X150.864 Y97.82 E0.0161 F2700
G1 X151.18 Y98.137 E0.0322
G1 X151.462 Y98.485 E0.0483
G1 X151.70600000000002 Y98.86099999999999 E0.0644
G1 X151.909 Y99.259 E0.0804
G1 X152.06900000000002 Y99.678 E0.0965
G1 X152.186 Y100.11099999999999 E0.1126
G1 X152.256 Y100.553 E0.1287
G1 X152.28 Y101.019 E0.1455
G1 X152.28 Y108.981 E0.4315
G1 X152.256 Y109.447 E0.4483
G1 X152.186 Y109.88900000000001 E0.4643
G1 X152.06900000000002 Y110.322 E0.4804
G1 X151.909 Y110.741 E0.4965
G1 X151.70600000000002 Y111.13900000000001 E0.5126
G1 X151.462 Y111.515 E0.5287
G1 X151.18 Y111.863 E0.5448
G1 X150.864 Y112.18 E0.5609
G1 X150.515 Y112.462 E0.5770
G1 X150.139 Y112.706 E0.5931
G1 X149.74099999999999 Y112.90899999999999 E0.6091
G1 X149.322 Y113.07 E0.6252
G1 X148.89 Y113.186 E0.6413
G1 X148.44799999999998 Y113.256 E0.6574
G1 X147.981 Y113.28 E0.6742
G1 X108.019 Y113.28 E2.1097
G1 X107.553 Y113.256 E2.1264
G1 X107.11 Y113.186 E2.1425
G1 X106.678 Y113.07 E2.1586
G1 X106.26 Y112.90899999999999 E2.1747
G1 X105.86 Y112.706 E2.1908
G1 X105.485 Y112.462 E2.2069
G1 X105.137 Y112.18 E2.2230
G1 X104.82 Y111.863 E2.2391
G1 X104.538 Y111.515 E2.2551
G1 X104.294 Y111.14 E2.2712
G1 X104.09100000000001 Y110.74000000000001 E2.2873
G1 X103.93 Y110.322 E2.3034
G1 X103.815 Y109.89 E2.3195
G1 X103.744 Y109.447 E2.3356
G1 X103.72 Y108.981 E2.3524
G1 X103.72 Y101.019 E2.6384
G1 X103.744 Y100.553 E2.6551
G1 X103.815 Y100.11 E2.6712
G1 X103.93 Y99.678 E2.6873
G1 X104.09100000000001 Y99.25999999999999 E2.7034
G1 X104.294 Y98.86 E2.7195
G1 X104.538 Y98.485 E2.7356
G1 X104.82 Y98.137 E2.7517
G1 X105.137 Y97.82 E2.7677
G1 X105.485 Y97.538 E2.7838
G1 X105.86 Y97.294 E2.7999
G1 X106.26 Y97.09100000000001 E2.8160
G1 X106.678 Y96.93 E2.8321
G1 X107.11 Y96.815 E2.8482
G1 X107.553 Y96.744 E2.8643
G1 X108.019 Y96.72 E2.8811
G1 X147.981 Y96.72 E4.3165
G1 X148.44799999999998 Y96.744 E4.3333
G1 X148.89 Y96.814 E4.3494
G1 X149.322 Y96.93 E4.3655
G1 X149.74099999999999 Y97.09100000000001 E4.3816
G1 X150.139 Y97.294 E4.3976
G1 X150.515 Y97.538 E4.4137
; feature outer perimeter
G1 X150.798 Y97.149 F6000
G92 E0.0000
G1 X151.185 Y97.463 E0.0179 F1800
G1 X151.537 Y97.815 E0.0358
G1 X151.85 Y98.202 E0.0537
G1 X152.122 Y98.62 E0.0716
G1 X152.348 Y99.064 E0.0895
G1 X152.526 Y99.529 E0.1074
G1 X152.656 Y100.011 E0.1253
G1 X152.73399999999998 Y100.50200000000001 E0.1432
G1 X152.76 Y101.006 E0.1613
G1 X152.76 Y108.994 E0.4482
G1 X152.73399999999998 Y109.49799999999999 E0.4663
G1 X152.656 Y109.989 E0.4842
G1 X152.526 Y110.471 E0.5021
G1 X152.348 Y110.936 E0.5200
G1 X152.122 Y111.38 E0.5379
G1 X151.851 Y111.798 E0.5558
G1 X151.537 Y112.185 E0.5737
G1 X151.185 Y112.537 E0.5916
G1 X150.798 Y112.851 E0.6095
G1 X150.38 Y113.122 E0.6274
G1 X149.936 Y113.348 E0.6453
G1 X149.471 Y113.527 E0.6632
G1 X148.99 Y113.656 E0.6811
G1 X148.498 Y113.73400000000001 E0.6990
G1 X147.994 Y113.75999999999999 E0.7171
G1 X108.006 Y113.75999999999999 E2.1535
G1 X107.503 Y113.73400000000001 E2.1716
G1 X107.01 Y113.656 E2.1895
G1 X106.529 Y113.527 E2.2074
G1 X106.064 Y113.348 E2.2253
G1 X105.62 Y113.122 E2.2432
G1 X105.202 Y112.851 E2.2611
G1 X104.815 Y112.537 E2.2790
G1 X104.463 Y112.185 E2.2969
G1 X104.149 Y111.798 E2.3148
G1 X103.878 Y111.38 E2.3327
G1 X103.652 Y110.936 E2.3506
G1 X103.473 Y110.471 E2.3685
G1 X103.344 Y109.99000000000001 E2.3864
G1 X103.26599999999999 Y109.49799999999999 E2.4043
G1 X103.24 Y108.994 E2.4224
G1 X103.24 Y101.006 E2.7093
G1 X103.26599999999999 Y100.50200000000001 E2.7274
G1 X103.344 Y100.00999999999999 E2.7453
G1 X103.473 Y99.529 E2.7632
G1 X103.652 Y99.064 E2.7811
G1 X103.878 Y98.62 E2.7990
G1 X104.149 Y98.202 E2.8169
G1 X104.463 Y97.815 E2.8348
G1 X104.815 Y97.463 E2.8527
G1 X105.202 Y97.149 E2.8706
G1 X105.62 Y96.878 E2.8885
G1 X106.064 Y96.652 E2.9064
G1 X106.529 Y96.473 E2.9243
G1 X107.01 Y96.344 E2.9422
G1 X107.503 Y96.26599999999999 E2.9601
G1 X108.006 Y96.24000000000001 E2.9782
G1 X147.994 Y96.24000000000001 E4.4146
G1 X148.498 Y96.26599999999999 E4.4327
G1 X148.99 Y96.344 E4.4506
G1 X149.471 Y96.473 E4.4685
G1 X149.936 Y96.652 E4.4864
G1 X150.38 Y96.878 E4.5043
G1 X150.798 Y97.149 E4.5222
; feature solid layer
G1 X151.28300000000002 Y110.227 F6000
G92 E0.0000
G1 X149.227 Y112.28399999999999 E0.1045 F2880
G1 X149.08499999999998 Y112.338 E0.1099
G1 X148.73000000000002 Y112.43299999999999 E0.1231
G1 X148.36700000000002 Y112.491 E0.1363
G1 X148.34 Y112.49199999999999 E0.1373
G1 X151.49200000000002 Y109.339 E0.2975
G1 X151.512 Y108.962 E0.3111
G1 X151.512 Y108.64099999999999 E0.3226
G1 X147.64100000000002 Y112.512 E0.5192
G1 X146.962 Y112.512 E0.5436
G1 X151.512 Y107.962 E0.7748
G1 X151.512 Y107.283 E0.7991
G1 X146.28300000000002 Y112.512 E1.0648
G1 X145.60399999999998 Y112.512 E1.0891
G1 X151.512 Y106.604 E1.3892
G1 X151.512 Y105.926 E1.4136
G1 X144.926 Y112.512 E1.7482
G1 X144.247 Y112.512 E1.7726
G1 X151.512 Y105.247 E2.1417
G1 X151.512 Y104.568 E2.1661
G1 X143.56799999999998 Y112.512 E2.5696
G1 X142.889 Y112.512 E2.5940
G1 X151.512 Y103.88900000000001 E3.0320
G1 X151.512 Y103.21000000000001 E3.0564
G1 X142.20999999999998 Y112.512 E3.5289
G1 X141.53199999999998 Y112.512 E3.5533
G1 X151.512 Y102.532 E4.0603
G1 X151.512 Y101.85300000000001 E4.0847
G1 X140.853 Y112.512 E4.6262
G1 X140.174 Y112.512 E4.6506
G1 X151.512 Y101.174 E5.2266
G1 X151.512 Y101.038 E5.2314
G1 X151.49099999999999 Y100.63300000000001 E5.2460
G1 X151.475 Y100.532 E5.2497
G1 X139.495 Y112.512 E5.8583
G1 X138.816 Y112.512 E5.8826
G1 X151.35399999999998 Y99.97399999999999 E6.5195
G1 X151.338 Y99.91499999999999 E6.5217
G1 X151.207 Y99.572 E6.5349
G1 X151.163 Y99.487 E6.5384
G1 X138.137 Y112.512 E7.2001
G1 X137.459 Y112.512 E7.2245
G1 X150.916 Y99.055 E7.9081
G1 X150.839 Y98.936 E7.9132
G1 X150.623 Y98.669 E7.9255
G1 X136.78 Y112.512 E8.6288
G1 X136.101 Y112.512 E8.6531
G1 X150.27800000000002 Y98.33500000000001 E9.3734
G1 X150.063 Y98.161 E9.3833
G1 X149.888 Y98.04599999999999 E9.3908
G1 X135.422 Y112.512 E10.1257
G1 X134.743 Y112.512 E10.1500
G1 X149.45 Y97.805 E10.8972
G1 X149.428 Y97.794 E10.8981
G1 X149.08499999999998 Y97.662 E10.9113
G1 X148.951 Y97.626 E10.9163
G1 X134.064 Y112.512 E11.6725
G1 X133.386 Y112.512 E11.6969
G1 X148.386 Y97.512 E12.4588
G1 X148.36700000000002 Y97.509 E12.4595
G1 X147.961 Y97.488 E12.4741
G1 X147.731 Y97.488 E12.4824
G1 X132.707 Y112.512 E13.2456
G1 X132.028 Y112.512 E13.2700
G1 X147.05200000000002 Y97.488 E14.0332
G1 X146.373 Y97.488 E14.0576
G1 X131.349 Y112.512 E14.8208
G1 X130.67000000000002 Y112.512 E14.8452
G1 X145.69400000000002 Y97.488 E15.6084
G1 X145.01600000000002 Y97.488 E15.6328
G1 X129.992 Y112.512 E16.3960
G1 X129.313 Y112.512 E16.4204
G1 X144.337 Y97.488 E17.1836
G1 X143.65800000000002 Y97.488 E17.2080
G1 X128.63400000000001 Y112.512 E17.9712
G1 X127.955 Y112.512 E17.9956
G1 X142.97899999999998 Y97.488 E18.7588
G1 X142.3 Y97.488 E18.7832
G1 X127.27600000000001 Y112.512 E19.5464
G1 X126.59700000000001 Y112.512 E19.5708
G1 X141.621 Y97.488 E20.3340
G1 X140.94299999999998 Y97.488 E20.3584
G1 X125.919 Y112.512 E21.1216
G1 X125.24000000000001 Y112.512 E21.1460
G1 X140.264 Y97.488 E21.9092
G1 X139.585 Y97.488 E21.9336
G1 X124.561 Y112.512 E22.6968
G1 X123.882 Y112.512 E22.7212
G1 X138.906 Y97.488 E23.4844
G1 X138.227 Y97.488 E23.5088
G1 X123.203 Y112.512 E24.2720
G1 X122.525 Y112.512 E24.2964
G1 X137.549 Y97.488 E25.0596
G1 X136.87 Y97.488 E25.0840
G1 X121.846 Y112.512 E25.8472
G1 X121.167 Y112.512 E25.8716
G1 X136.191 Y97.488 E26.6348
G1 X135.512 Y97.488 E26.6592
G1 X120.488 Y112.512 E27.4224
G1 X119.809 Y112.512 E27.4468
G1 X134.833 Y97.488 E28.2100
G1 X134.154 Y97.488 E28.2344
G1 X119.13 Y112.512 E28.9976
G1 X118.452 Y112.512 E29.0220
G1 X133.476 Y97.488 E29.7852
G1 X132.797 Y97.488 E29.8096
G1 X117.773 Y112.512 E30.5728
G1 X117.094 Y112.512 E30.5972
G1 X132.118 Y97.488 E31.3604
G1 X131.439 Y97.488 E31.3848
G1 X116.41499999999999 Y112.512 E32.1480
G1 X115.73599999999999 Y112.512 E32.1724
G1 X130.76 Y97.488 E32.9356
G1 X130.08100000000002 Y97.488 E32.9600
G1 X115.057 Y112.512 E33.7232
G1 X114.37899999999999 Y112.512 E33.7476
G1 X129.403 Y97.488 E34.5108
G1 X128.724 Y97.488 E34.5352
G1 X113.7 Y112.512 E35.2984
G1 X113.021 Y112.512 E35.3228
G1 X128.04500000000002 Y97.488 E36.0860
G1 X127.366 Y97.488 E36.1104
G1 X112.342 Y112.512 E36.8736
G1 X111.663 Y112.512 E36.8980
G1 X126.687 Y97.488 E37.6612
G1 X126.009 Y97.488 E37.6856
G1 X110.985 Y112.512 E38.4488
G1 X110.306 Y112.512 E38.4732
G1 X125.33 Y97.488 E39.2364
G1 X124.65100000000001 Y97.488 E39.2608
G1 X109.627 Y112.512 E40.0240
G1 X108.94800000000001 Y112.512 E40.0484
G1 X123.97200000000001 Y97.488 E40.8116
G1 X123.293 Y97.488 E40.8360
G1 X108.269 Y112.512 E41.5992
G1 X108.039 Y112.512 E41.6075
G1 X107.633 Y112.491 E41.6221
G1 X107.615 Y112.488 E41.6228
G1 X122.614 Y97.488 E42.3848
G1 X121.936 Y97.488 E42.4092
G1 X107.049 Y112.374 E43.1654
G1 X106.91499999999999 Y112.338 E43.1704
G1 X106.572 Y112.207 E43.1836
G1 X106.55 Y112.195 E43.1845
G1 X121.257 Y97.488 E43.9316
G1 X120.578 Y97.488 E43.9560
G1 X106.112 Y111.95400000000001 E44.6908
G1 X105.937 Y111.84 E44.6983
G1 X105.72200000000001 Y111.66499999999999 E44.7083
G1 X119.899 Y97.488 E45.4285
G1 X119.22 Y97.488 E45.4529
G1 X105.377 Y111.331 E46.1561
G1 X105.16 Y111.063 E46.1685
G1 X105.084 Y110.945 E46.1735
G1 X118.541 Y97.488 E46.8571
G1 X117.863 Y97.488 E46.8815
G1 X104.837 Y110.513 E47.5432
G1 X104.793 Y110.428 E47.5467
G1 X104.662 Y110.08500000000001 E47.5599
G1 X104.646 Y110.02600000000001 E47.5621
G1 X117.184 Y97.488 E48.1990
G1 X116.505 Y97.488 E48.2234
G1 X104.525 Y109.468 E48.8319
G1 X104.509 Y109.36699999999999 E48.8356
G1 X104.488 Y108.961 E48.8502
G1 X104.488 Y108.826 E48.8550
G1 X115.826 Y97.488 E49.4310
G1 X115.14699999999999 Y97.488 E49.4554
G1 X104.488 Y108.14699999999999 E49.9969
G1 X104.488 Y107.469 E50.0213
G1 X114.469 Y97.488 E50.5283
G1 X113.78999999999999 Y97.488 E50.5527
G1 X104.488 Y106.78999999999999 E51.0252
G1 X104.488 Y106.11099999999999 E51.0496
G1 X113.11099999999999 Y97.488 E51.4876
G1 X112.432 Y97.488 E51.5120
G1 X104.488 Y105.432 E51.9156
G1 X104.488 Y104.753 E51.9400
G1 X111.753 Y97.488 E52.3090
G1 X111.074 Y97.488 E52.3334
G1 X104.488 Y104.074 E52.6680
G1 X104.488 Y103.396 E52.6924
G1 X110.396 Y97.488 E52.9925
G1 X109.717 Y97.488 E53.0169
G1 X104.488 Y102.717 E53.2825
G1 X104.488 Y102.038 E53.3069
G1 X109.038 Y97.488 E53.5380
G1 X108.35900000000001 Y97.488 E53.5624
G1 X104.488 Y101.35900000000001 E53.7591
G1 X104.488 Y101.039 E53.7706
G1 X104.508 Y100.66 E53.7842
G1 X107.66 Y97.50800000000001 E53.9443
G1 X107.633 Y97.509 E53.9453
G1 X107.27 Y97.56700000000001 E53.9585
G1 X106.91499999999999 Y97.662 E53.9717
G1 X106.773 Y97.71600000000001 E53.9772
G1 X104.71600000000001 Y99.773 E54.0817
G92 E0.0000
G1 E-7 F2400 ; custom retraction
; layer 3, Z = 0.600
;fan3
; feature inner perimeter
G1 Z0.800 F1200
G1 X104.388 Y99.826 F6000
G1 Z0.600 F1200
G1 E0 F2400 ; custom un-retraction/prime
G92 E0.0000
G1 X104.53 Y99.455 E0.0143 F2700
G1 X104.711 Y99.101 E0.0286
G1 X104.92699999999999 Y98.767 E0.0428
G1 X105.17699999999999 Y98.458 E0.0571
G1 X105.458 Y98.17699999999999 E0.0714
G1 X105.767 Y97.92699999999999 E0.0857
G1 X106.101 Y97.711 E0.1000
G1 X106.455 Y97.53 E0.1143
G1 X106.826 Y97.388 E0.1285
G1 X107.21000000000001 Y97.285 E0.1428
G1 X107.60300000000001 Y97.22200000000001 E0.1571
G1 X108.031 Y97.2 E0.1725
G1 X147.969 Y97.2 E1.6071
G1 X148.397 Y97.22200000000001 E1.6225
G1 X148.79000000000002 Y97.285 E1.6368
G1 X149.174 Y97.388 E1.6511
G1 X149.54500000000002 Y97.53 E1.6654
G1 X149.899 Y97.71000000000001 E1.6796
G1 X150.233 Y97.92699999999999 E1.6939
G1 X150.542 Y98.17699999999999 E1.7082
G1 X150.82299999999998 Y98.458 E1.7225
G1 X151.07299999999998 Y98.767 E1.7367
G1 X151.29000000000002 Y99.101 E1.7511
G1 X151.47 Y99.455 E1.7653
G1 X151.612 Y99.826 E1.7796
G1 X151.716 Y100.211 E1.7939
G1 X151.77800000000002 Y100.60300000000001 E1.8082
G1 X151.8 Y101.031 E1.8236
G1 X151.8 Y108.969 E2.1087
G1 X151.77800000000002 Y109.39699999999999 E2.1241
G1 X151.716 Y109.789 E2.1384
G1 X151.612 Y110.174 E2.1527
G1 X151.47 Y110.545 E2.1669
G1 X151.29000000000002 Y110.899 E2.1812
G1 X151.07299999999998 Y111.233 E2.1955
G1 X150.82299999999998 Y111.542 E2.2098
G1 X150.542 Y111.82300000000001 E2.2241
G1 X150.233 Y112.07300000000001 E2.2383
G1 X149.899 Y112.28999999999999 E2.2526
G1 X149.54500000000002 Y112.47 E2.2669
G1 X149.174 Y112.612 E2.2812
G1 X148.79000000000002 Y112.715 E2.2955
G1 X148.397 Y112.77799999999999 E2.3097
G1 X147.969 Y112.8 E2.3252
G1 X108.031 Y112.8 E3.7598
G1 X107.60300000000001 Y112.77799999999999 E3.7752
G1 X107.21000000000001 Y112.715 E3.7895
G1 X106.826 Y112.612 E3.8037
G1 X106.455 Y112.47 E3.8180
G1 X106.101 Y112.289 E3.8323
G1 X105.767 Y112.07300000000001 E3.8466
G1 X105.458 Y111.82300000000001 E3.8609
G1 X105.17699999999999 Y111.542 E3.8751
G1 X104.92699999999999 Y111.233 E3.8894
G1 X104.711 Y110.899 E3.9037
G1 X104.53 Y110.545 E3.9180
G1 X104.388 Y110.174 E3.9323
G1 X104.285 Y109.78999999999999 E3.9465
G1 X104.22200000000001 Y109.39699999999999 E3.9608
G1 X104.2 Y108.969 E3.9762
G1 X104.2 Y101.031 E4.2613
G1 X104.22200000000001 Y100.60300000000001 E4.2768
G1 X104.285 Y100.21000000000001 E4.2910
G1 X104.388 Y99.826 E4.3053
G1 X103.93 Y99.678 F6000
G92 E0.0000
G1 X104.09100000000001 Y99.25999999999999 E0.0161 F2700
G1 X104.294 Y98.86 E0.0322
G1 X104.538 Y98.485 E0.0483
G1 X104.82 Y98.137 E0.0644
G1 X105.137 Y97.82 E0.0804
G1 X105.485 Y97.538 E0.0965
G1 X105.86 Y97.294 E0.1126
G1 X106.26 Y97.09100000000001 E0.1287
G1 X106.678 Y96.93 E0.1448
G1 X107.11 Y96.815 E0.1609
G1 X107.553 Y96.744 E0.1770
G1 X108.019 Y96.72 E0.1937
G1 X147.981 Y96.72 E1.6292
G1 X148.44799999999998 Y96.744 E1.6460
G1 X148.89 Y96.814 E1.6621
G1 X149.322 Y96.93 E1.6782
G1 X149.74099999999999 Y97.09100000000001 E1.6943
G1 X150.139 Y97.294 E1.7103
G1 X150.515 Y97.538 E1.7264
G1 X150.864 Y97.82 E1.7425
G1 X151.18 Y98.137 E1.7586
G1 X151.462 Y98.485 E1.7747
G1 X151.70600000000002 Y98.86099999999999 E1.7908
G1 X151.909 Y99.259 E1.8069
G1 X152.06900000000002 Y99.678 E1.8230
G1 X152.186 Y100.11099999999999 E1.8391
G1 X152.256 Y100.553 E1.8551
G1 X152.28 Y101.019 E1.8719
G1 X152.28 Y108.981 E2.1579
G1 X152.256 Y109.447 E2.1747
G1 X152.186 Y109.88900000000001 E2.1908
G1 X152.06900000000002 Y110.322 E2.2069
G1 X151.909 Y110.741 E2.2230
G1 X151.70600000000002 Y111.13900000000001 E2.2390
G1 X151.462 Y111.515 E2.2552
G1 X151.18 Y111.863 E2.2712
G1 X150.864 Y112.18 E2.2873
G1 X150.515 Y112.462 E2.3034
G1 X150.139 Y112.706 E2.3195
G1 X149.74099999999999 Y112.90899999999999 E2.3356
G1 X149.322 Y113.07 E2.3517
G1 X148.89 Y113.186 E2.3678
G1 X148.44799999999998 Y113.256 E2.3838
G1 X147.981 Y113.28 E2.4006
G1 X108.019 Y113.28 E3.8361
G1 X107.553 Y113.256 E3.8529
G1 X107.11 Y113.186 E3.8690
G1 X106.678 Y113.07 E3.8851
G1 X106.26 Y112.90899999999999 E3.9011
G1 X105.86 Y112.706 E3.9172
G1 X105.485 Y112.462 E3.9333
G1 X105.137 Y112.18 E3.9494
G1 X104.82 Y111.863 E3.9655
G1 X104.538 Y111.515 E3.9816
G1 X104.294 Y111.14 E3.9977
G1 X104.09100000000001 Y110.74000000000001 E4.0138
G1 X103.93 Y110.322 E4.0298
G1 X103.815 Y109.89 E4.0459
G1 X103.744 Y109.447 E4.0620
G1 X103.72 Y108.981 E4.0788
G1 X103.72 Y101.019 E4.3648
G1 X103.744 Y100.553 E4.3816
G1 X103.815 Y100.11 E4.3977
G1 X103.93 Y99.678 E4.4137
; feature outer perimeter
G1 X103.473 Y99.529 F6000
G92 E0.0000
G1 X103.652 Y99.064 E0.0179 F1800
G1 X103.878 Y98.62 E0.0358
G1 X104.149 Y98.202 E0.0537
G1 X104.463 Y97.815 E0.0716
G1 X104.815 Y97.463 E0.0895
G1 X105.202 Y97.149 E0.1074
G1 X105.62 Y96.878 E0.1253
G1 X106.064 Y96.652 E0.1432
G1 X106.529 Y96.473 E0.1611
G1 X107.01 Y96.344 E0.1790
G1 X107.503 Y96.26599999999999 E0.1969
G1 X108.006 Y96.24000000000001 E0.2150
G1 X147.994 Y96.24000000000001 E1.6514
G1 X148.498 Y96.26599999999999 E1.6695
G1 X148.99 Y96.344 E1.6874
G1 X149.471 Y96.473 E1.7053
G1 X149.936 Y96.652 E1.7232
G1 X150.38 Y96.878 E1.7411
G1 X150.798 Y97.149 E1.7590
G1 X151.185 Y97.463 E1.7769
G1 X151.537 Y97.815 E1.7948
G1 X151.85 Y98.202 E1.8126
G1 X152.122 Y98.62 E1.8306
G1 X152.348 Y99.064 E1.8484
G1 X152.526 Y99.529 E1.8663
G1 X152.656 Y100.011 E1.8842
G1 X152.73399999999998 Y100.50200000000001 E1.9021
G1 X152.76 Y101.006 E1.9203
G1 X152.76 Y108.994 E2.2072
G1 X152.73399999999998 Y109.49799999999999 E2.2253
G1 X152.656 Y109.989 E2.2432
G1 X152.526 Y110.471 E2.2611
G1 X152.348 Y110.936 E2.2790
G1 X152.122 Y111.38 E2.2969
G1 X151.851 Y111.798 E2.3148
G1 X151.537 Y112.185 E2.3327
G1 X151.185 Y112.537 E2.3506
G1 X150.798 Y112.851 E2.3685
G1 X150.38 Y113.122 E2.3864
G1 X149.936 Y113.348 E2.4043
G1 X149.471 Y113.527 E2.4222
G1 X148.99 Y113.656 E2.4400
G1 X148.498 Y113.73400000000001 E2.4579
G1 X147.994 Y113.75999999999999 E2.4761
G1 X108.006 Y113.75999999999999 E3.9125
G1 X107.503 Y113.73400000000001 E3.9306
G1 X107.01 Y113.656 E3.9485
G1 X106.529 Y113.527 E3.9664
G1 X106.064 Y113.348 E3.9843
G1 X105.62 Y113.122 E4.0022
G1 X105.202 Y112.851 E4.0201
G1 X104.815 Y112.537 E4.0380
G1 X104.463 Y112.185 E4.0558
G1 X104.149 Y111.798 E4.0737
G1 X103.878 Y111.38 E4.0916
G1 X103.652 Y110.936 E4.1095
G1 X103.473 Y110.471 E4.1274
G1 X103.344 Y109.99000000000001 E4.1453
G1 X103.26599999999999 Y109.49799999999999 E4.1632
G1 X103.24 Y108.994 E4.1813
G1 X103.24 Y101.006 E4.4683
G1 X103.26599999999999 Y100.50200000000001 E4.4864
G1 X103.344 Y100.00999999999999 E4.5043
G1 X103.473 Y99.529 E4.5222
; feature solid layer
G1 X106.773 Y112.28399999999999 F6000
G92 E0.0000
G1 X104.71600000000001 Y110.227 E0.1045 F2880
G1 X104.662 Y110.08500000000001 E0.1099
G1 X104.56700000000001 Y109.72999999999999 E0.1231
G1 X104.509 Y109.36699999999999 E0.1363
G1 X104.508 Y109.34 E0.1373
G1 X107.66 Y112.49199999999999 E0.2975
G1 X108.039 Y112.512 E0.3111
G1 X108.35900000000001 Y112.512 E0.3226
G1 X104.488 Y108.64099999999999 E0.5192
G1 X104.488 Y107.962 E0.5436
G1 X109.038 Y112.512 E0.7748
G1 X109.717 Y112.512 E0.7991
G1 X104.488 Y107.283 E1.0648
G1 X104.488 Y106.604 E1.0892
G1 X110.396 Y112.512 E1.3893
G1 X111.074 Y112.512 E1.4136
G1 X104.488 Y105.926 E1.7482
G1 X104.488 Y105.247 E1.7726
G1 X111.753 Y112.512 E2.1417
G1 X112.432 Y112.512 E2.1661
G1 X104.488 Y104.568 E2.5696
G1 X104.488 Y103.88900000000001 E2.5940
G1 X113.11099999999999 Y112.512 E3.0320
G1 X113.78999999999999 Y112.512 E3.0564
G1 X104.488 Y103.21000000000001 E3.5290
G1 X104.488 Y102.531 E3.5533
G1 X114.469 Y112.512 E4.0604
G1 X115.14699999999999 Y112.512 E4.0847
G1 X104.488 Y101.85300000000001 E4.6262
G1 X104.488 Y101.174 E4.6506
G1 X115.826 Y112.512 E5.2266
G1 X116.505 Y112.512 E5.2510
G1 X104.525 Y100.532 E5.8595
G1 X104.56700000000001 Y100.27000000000001 E5.8691
G1 X104.646 Y99.97399999999999 E5.8801
G1 X117.184 Y112.512 E6.5170
G1 X117.863 Y112.512 E6.5414
G1 X104.837 Y99.487 E7.2031
G1 X104.96000000000001 Y99.245 E7.2128
G1 X105.084 Y99.055 E7.2210
G1 X118.541 Y112.512 E7.9046
G1 X119.22 Y112.512 E7.9290
G1 X105.377 Y98.669 E8.6322
G1 X105.392 Y98.65100000000001 E8.6330
G1 X105.651 Y98.392 E8.6462
G1 X105.72200000000001 Y98.33500000000001 E8.6495
G1 X119.899 Y112.512 E9.3697
G1 X120.578 Y112.512 E9.3941
G1 X106.112 Y98.04599999999999 E10.1289
G1 X106.245 Y97.96000000000001 E10.1346
G1 X106.55 Y97.805 E10.1469
G1 X121.257 Y112.512 E10.8940
G1 X121.936 Y112.512 E10.9184
G1 X107.049 Y97.626 E11.6746
G1 X107.27 Y97.56700000000001 E11.6828
G1 X107.615 Y97.512 E11.6953
G1 X122.614 Y112.512 E12.4573
G1 X123.293 Y112.512 E12.4817
G1 X108.269 Y97.488 E13.2449
G1 X108.94800000000001 Y97.488 E13.2693
G1 X123.97200000000001 Y112.512 E14.0325
G1 X124.65100000000001 Y112.512 E14.0569
G1 X109.627 Y97.488 E14.8201
G1 X110.306 Y97.488 E14.8445
G1 X125.33 Y112.512 E15.6077
G1 X126.00800000000001 Y112.512 E15.6321
G1 X110.98400000000001 Y97.488 E16.3953
G1 X111.663 Y97.488 E16.4197
G1 X126.687 Y112.512 E17.1829
G1 X127.366 Y112.512 E17.2073
G1 X112.342 Y97.488 E17.9705
G1 X113.021 Y97.488 E17.9949
G1 X128.04500000000002 Y112.512 E18.7581
G1 X128.724 Y112.512 E18.7825
G1 X113.7 Y97.488 E19.5457
G1 X114.37899999999999 Y97.488 E19.5701
G1 X129.403 Y112.512 E20.3333
G1 X130.08100000000002 Y112.512 E20.3577
G1 X115.057 Y97.488 E21.1209
G1 X115.73599999999999 Y97.488 E21.1453
G1 X130.76 Y112.512 E21.9085
G1 X131.439 Y112.512 E21.9329
G1 X116.41499999999999 Y97.488 E22.6961
G1 X117.094 Y97.488 E22.7205
G1 X132.118 Y112.512 E23.4837
G1 X132.797 Y112.512 E23.5081
G1 X117.773 Y97.488 E24.2713
G1 X118.452 Y97.488 E24.2957
G1 X133.476 Y112.512 E25.0589
G1 X134.154 Y112.512 E25.0833
G1 X119.13 Y97.488 E25.8465
G1 X119.809 Y97.488 E25.8709
G1 X134.833 Y112.512 E26.6341
G1 X135.512 Y112.512 E26.6585
G1 X120.488 Y97.488 E27.4217
G1 X121.167 Y97.488 E27.4461
G1 X136.191 Y112.512 E28.2093
G1 X136.87 Y112.512 E28.2337
G1 X121.846 Y97.488 E28.9969
G1 X122.524 Y97.488 E29.0213
G1 X137.548 Y112.512 E29.7845
G1 X138.227 Y112.512 E29.8089
G1 X123.203 Y97.488 E30.5721
G1 X123.882 Y97.488 E30.5965
G1 X138.906 Y112.512 E31.3597
G1 X139.585 Y112.512 E31.3841
G1 X124.561 Y97.488 E32.1473
G1 X125.24000000000001 Y97.488 E32.1717
G1 X140.264 Y112.512 E32.9349
G1 X140.94299999999998 Y112.512 E32.9593
G1 X125.919 Y97.488 E33.7225
G1 X126.59700000000001 Y97.488 E33.7469
G1 X141.621 Y112.512 E34.5101
G1 X142.3 Y112.512 E34.5345
G1 X127.27600000000001 Y97.488 E35.2977
G1 X127.955 Y97.488 E35.3221
G1 X142.97899999999998 Y112.512 E36.0853
G1 X143.65800000000002 Y112.512 E36.1097
G1 X128.63400000000001 Y97.488 E36.8729
G1 X129.313 Y97.488 E36.8973
G1 X144.337 Y112.512 E37.6605
G1 X145.01600000000002 Y112.512 E37.6849
G1 X129.992 Y97.488 E38.4481
G1 X130.67000000000002 Y97.488 E38.4725
G1 X145.69400000000002 Y112.512 E39.2357
G1 X146.373 Y112.512 E39.2601
G1 X131.349 Y97.488 E40.0233
G1 X132.028 Y97.488 E40.0477
G1 X147.05200000000002 Y112.512 E40.8109
G1 X147.731 Y112.512 E40.8353
G1 X132.707 Y97.488 E41.5985
G1 X133.386 Y97.488 E41.6229
G1 X148.385 Y112.488 E42.3849
G1 X148.73000000000002 Y112.43299999999999 E42.3974
G1 X148.951 Y112.374 E42.4057
G1 X134.064 Y97.488 E43.1619
G1 X134.743 Y97.488 E43.1862
G1 X149.45 Y112.195 E43.9334
G1 X149.755 Y112.03999999999999 E43.9456
G1 X149.888 Y111.95400000000001 E43.9513
G1 X135.422 Y97.488 E44.6862
G1 X136.101 Y97.488 E44.7106
G1 X150.27800000000002 Y111.66499999999999 E45.4308
G1 X150.349 Y111.608 E45.4340
G1 X150.608 Y111.34899999999999 E45.4472
G1 X150.623 Y111.331 E45.4480
G1 X136.78 Y97.488 E46.1513
G1 X137.459 Y97.488 E46.1757
G1 X150.916 Y110.945 E46.8593
G1 X151.04000000000002 Y110.755 E46.8675
G1 X151.163 Y110.513 E46.8772
G1 X138.137 Y97.488 E47.5389
G1 X138.816 Y97.488 E47.5633
G1 X151.35399999999998 Y110.02600000000001 E48.2002
G1 X151.434 Y109.729 E48.2112
G1 X151.475 Y109.468 E48.2207
G1 X139.495 Y97.488 E48.8293
G1 X140.174 Y97.488 E48.8537
G1 X151.512 Y108.826 E49.4296
G1 X151.512 Y108.14699999999999 E49.4540
G1 X140.853 Y97.488 E49.9955
G1 X141.53199999999998 Y97.488 E50.0199
G1 X151.512 Y107.468 E50.5269
G1 X151.512 Y106.78999999999999 E50.5513
G1 X142.20999999999998 Y97.488 E51.0238
G1 X142.889 Y97.488 E51.0482
G1 X151.512 Y106.11099999999999 E51.4862
G1 X151.512 Y105.432 E51.5106
G1 X143.56799999999998 Y97.488 E51.9142
G1 X144.247 Y97.488 E51.9386
G1 X151.512 Y104.753 E52.3076
G1 X151.512 Y104.074 E52.3320
G1 X144.926 Y97.488 E52.6666
G1 X145.60399999999998 Y97.488 E52.6910
G1 X151.512 Y103.396 E52.9911
G1 X151.512 Y102.717 E53.0155
G1 X146.28300000000002 Y97.488 E53.2811
G1 X146.962 Y97.488 E53.3055
G1 X151.512 Y102.038 E53.5366
G1 X151.512 Y101.35900000000001 E53.5610
G1 X147.64100000000002 Y97.488 E53.7576
G1 X147.961 Y97.488 E53.7691
G1 X148.34 Y97.50800000000001 E53.7828
G1 X151.49200000000002 Y100.661 E53.9429
G1 X151.49099999999999 Y100.63300000000001 E53.9439
G1 X151.434 Y100.271 E53.9571
G1 X151.338 Y99.91499999999999 E53.9703
G1 X151.28300000000002 Y99.773 E53.9758
G1 X149.227 Y97.71600000000001 E54.0803
G92 E0.0000
G1 E-7 F2400 ; custom retraction
; layer 4, Z = 0.800
; feature inner perimeter
G1 Z1.000 F1200
G1 X149.174 Y97.388 F6000
G1 Z0.800 F1200
G1 E0 F2400 ; custom un-retraction/prime
G92 E0.0000
G1 X149.54500000000002 Y97.53 E0.0143 F2700
G1 X149.899 Y97.71000000000001 E0.0286
G1 X150.233 Y97.92699999999999 E0.0429
G1 X150.542 Y98.17699999999999 E0.0571
G1 X150.82299999999998 Y98.458 E0.0714
G1 X151.07299999999998 Y98.767 E0.0857
G1 X151.29000000000002 Y99.101 E0.1000
G1 X151.47 Y99.455 E0.1143
G1 X151.612 Y99.826 E0.1285
G1 X151.716 Y100.211 E0.1428
G1 X151.77800000000002 Y100.60300000000001 E0.1571
G1 X151.8 Y101.031 E0.1725
G1 X151.8 Y108.969 E0.4576
G1 X151.77800000000002 Y109.39699999999999 E0.4730
G1 X151.716 Y109.789 E0.4873
G1 X151.612 Y110.174 E0.5016
G1 X151.47 Y110.545 E0.5159
G1 X151.29000000000002 Y110.899 E0.5302
G1 X151.07299999999998 Y111.233 E0.5445
G1 X150.82299999999998 Y111.542 E0.5587
G1 X150.542 Y111.82300000000001 E0.5730
G1 X150.233 Y112.07300000000001 E0.5873
G1 X149.899 Y112.28999999999999 E0.6016
G1 X149.54500000000002 Y112.47 E0.6158
G1 X149.174 Y112.612 E0.6301
G1 X148.79000000000002 Y112.715 E0.6444
G1 X148.397 Y112.77799999999999 E0.6587
G1 X147.969 Y112.8 E0.6741
G1 X108.031 Y112.8 E2.1087
G1 X107.60300000000001 Y112.77799999999999 E2.1241
G1 X107.21000000000001 Y112.715 E2.1384
G1 X106.826 Y112.612 E2.1527
G1 X106.455 Y112.47 E2.1669
G1 X106.101 Y112.289 E2.1812
G1 X105.767 Y112.07300000000001 E2.1955
G1 X105.458 Y111.82300000000001 E2.2098
G1 X105.17699999999999 Y111.542 E2.2241
G1 X104.92699999999999 Y111.233 E2.2384
G1 X104.711 Y110.899 E2.2526
G1 X104.53 Y110.545 E2.2669
G1 X104.388 Y110.174 E2.2812
G1 X104.285 Y109.78999999999999 E2.2955
G1 X104.22200000000001 Y109.39699999999999 E2.3098
G1 X104.2 Y108.969 E2.3252
G1 X104.2 Y101.031 E2.6103
G1 X104.22200000000001 Y100.60300000000001 E2.6257
G1 X104.285 Y100.21000000000001 E2.6400
G1 X104.388 Y99.826 E2.6543
G1 X104.53 Y99.455 E2.6685
G1 X104.711 Y99.101 E2.6828
G1 X104.92699999999999 Y98.767 E2.6971
G1 X105.17699999999999 Y98.458 E2.7114
G1 X105.458 Y98.17699999999999 E2.7257
G1 X105.767 Y97.92699999999999 E2.7399
G1 X106.101 Y97.711 E2.7542
G1 X106.455 Y97.53 E2.7685
G1 X106.826 Y97.388 E2.7828
G1 X107.21000000000001 Y97.285 E2.7971
G1 X107.60300000000001 Y97.22200000000001 E2.8114
G1 X108.031 Y97.2 E2.8268
G1 X147.969 Y97.2 E4.2614
G1 X148.397 Y97.22200000000001 E4.2768
G1 X148.79000000000002 Y97.285 E4.2911
G1 X149.174 Y97.388 E4.3053
G1 X149.322 Y96.93 F6000
G92 E0.0000
G1 X149.74099999999999 Y97.09100000000001 E0.0161 F2700
G1 X150.139 Y97.294 E0.0322
G1 X150.515 Y97.538 E0.0483
G1 X150.864 Y97.82 E0.0644
G1 X151.18 Y98.137 E0.0804
G1 X151.462 Y98.485 E0.0965
G1 X151.70600000000002 Y98.86099999999999 E0.1126
G1 X151.909 Y99.259 E0.1287
G1 X152.06900000000002 Y99.678 E0.1448
G1 X152.186 Y100.11099999999999 E0.1609
G1 X152.256 Y100.553 E0.1770
G1 X152.28 Y101.019 E0.1937
G1 X152.28 Y108.981 E0.4798
G1 X152.256 Y109.447 E0.4965
G1 X152.186 Y109.88900000000001 E0.5126
G1 X152.06900000000002 Y110.322 E0.5287
G1 X151.909 Y110.741 E0.5448
G1 X151.70600000000002 Y111.13900000000001 E0.5609
G1 X151.462 Y111.515 E0.5770
G1 X151.18 Y111.863 E0.5931
G1 X150.864 Y112.18 E0.6091
G1 X150.515 Y112.462 E0.6252
G1 X150.139 Y112.706 E0.6413
G1 X149.74099999999999 Y112.90899999999999 E0.6574
G1 X149.322 Y113.07 E0.6735
G1 X148.89 Y113.186 E0.6896
G1 X148.44799999999998 Y113.256 E0.7057
G1 X147.981 Y113.28 E0.7225
G1 X108.019 Y113.28 E2.1579
G1 X107.553 Y113.256 E2.1747
G1 X107.11 Y113.186 E2.1908
G1 X106.678 Y113.07 E2.2069
G1 X106.26 Y112.90899999999999 E2.2230
G1 X105.86 Y112.706 E2.2391
G1 X105.485 Y112.462 E2.2551
G1 X105.137 Y112.18 E2.2712
G1 X104.82 Y111.863 E2.2873
G1 X104.538 Y111.515 E2.3034
G1 X104.294 Y111.14 E2.3195
G1 X104.09100000000001 Y110.74000000000001 E2.3356
G1 X103.93 Y110.322 E2.3517
G1 X103.815 Y109.89 E2.3678
G1 X103.744 Y109.447 E2.3839
G1 X103.72 Y108.981 E2.4006
G1 X103.72 Y101.019 E2.6866
G1 X103.744 Y100.553 E2.7034
G1 X103.815 Y100.11 E2.7195
G1 X103.93 Y99.678 E2.7356
G1 X104.09100000000001 Y99.25999999999999 E2.7517
G1 X104.294 Y98.86 E2.7678
G1 X104.538 Y98.485 E2.7838
G1 X104.82 Y98.137 E2.7999
G1 X105.137 Y97.82 E2.8160
G1 X105.485 Y97.538 E2.8321
G1 X105.86 Y97.294 E2.8482
G1 X106.26 Y97.09100000000001 E2.8643
G1 X106.678 Y96.93 E2.8804
G1 X107.11 Y96.815 E2.8965
G1 X107.553 Y96.744 E2.9126
G1 X108.019 Y96.72 E2.9293
G1 X147.981 Y96.72 E4.3648
G1 X148.44799999999998 Y96.744 E4.3816
G1 X148.89 Y96.814 E4.3977
G1 X149.322 Y96.93 E4.4137
; feature outer perimeter
G1 X149.471 Y96.473 F6000
G92 E0.0000
G1 X149.936 Y96.652 E0.0179 F1800
G1 X150.38 Y96.878 E0.0358
G1 X150.798 Y97.149 E0.0537
G1 X151.185 Y97.463 E0.0716
G1 X151.537 Y97.815 E0.0895
G1 X151.85 Y98.202 E0.1074
G1 X152.122 Y98.62 E0.1253
G1 X152.348 Y99.064 E0.1432
G1 X152.526 Y99.529 E0.1611
G1 X152.656 Y100.011 E0.1790
G1 X152.73399999999998 Y100.50200000000001 E0.1969
G1 X152.76 Y101.006 E0.2150
G1 X152.76 Y108.994 E0.5019
G1 X152.73399999999998 Y109.49799999999999 E0.5200
G1 X152.656 Y109.989 E0.5379
G1 X152.526 Y110.471 E0.5558
G1 X152.348 Y110.936 E0.5737
G1 X152.122 Y111.38 E0.5916
G1 X151.851 Y111.798 E0.6095
G1 X151.537 Y112.185 E0.6274
G1 X151.185 Y112.537 E0.6453
G1 X150.798 Y112.851 E0.6632
G1 X150.38 Y113.122 E0.6811
G1 X149.936 Y113.348 E0.6990
G1 X149.471 Y113.527 E0.7169
G1 X148.99 Y113.656 E0.7348
G1 X148.498 Y113.73400000000001 E0.7527
G1 X147.994 Y113.75999999999999 E0.7708
G1 X108.006 Y113.75999999999999 E2.2072
G1 X107.503 Y113.73400000000001 E2.2253
G1 X107.01 Y113.656 E2.2432
G1 X106.529 Y113.527 E2.2611
G1 X106.064 Y113.348 E2.2790
G1 X105.62 Y113.122 E2.2969
G1 X105.202 Y112.851 E2.3148
G1 X104.815 Y112.537 E2.3327
G1 X104.463 Y112.185 E2.3506
G1 X104.149 Y111.798 E2.3685
G1 X103.878 Y111.38 E2.3864
G1 X103.652 Y110.936 E2.4043
G1 X103.473 Y110.471 E2.4222
G1 X103.344 Y109.99000000000001 E2.4401
G1 X103.26599999999999 Y109.49799999999999 E2.4579
G1 X103.24 Y108.994 E2.4761
G1 X103.24 Y101.006 E2.7630
G1 X103.26599999999999 Y100.50200000000001 E2.7811
G1 X103.344 Y100.00999999999999 E2.7990
G1 X103.473 Y99.529 E2.8169
G1 X103.652 Y99.064 E2.8348
G1 X103.878 Y98.62 E2.8527
G1 X104.149 Y98.202 E2.8706
G1 X104.463 Y97.815 E2.8885
G1 X104.815 Y97.463 E2.9064
G1 X105.202 Y97.149 E2.9243
G1 X105.62 Y96.878 E2.9422
G1 X106.064 Y96.652 E2.9601
G1 X106.529 Y96.473 E2.9780
G1 X107.01 Y96.344 E2.9959
G1 X107.503 Y96.26599999999999 E3.0138
G1 X108.006 Y96.24000000000001 E3.0319
G1 X147.994 Y96.24000000000001 E4.4683
G1 X148.498 Y96.26599999999999 E4.4864
G1 X148.99 Y96.344 E4.5043
G1 X149.471 Y96.473 E4.5222
; feature infill
; tool H0.200 W0.600
G1 X151.452 Y107.00399999999999 F6000
G92 E0.0000
G1 X146.00400000000002 Y112.452 E0.3460 F3600
G1 X137.519 Y112.452 E0.7270
G1 X150.873 Y99.098 E1.5749
G1 X150.791 Y98.97200000000001 E1.5817
G1 X150.564 Y98.691 E1.5979
G1 X150.309 Y98.436 E1.6141
G1 X150.02800000000002 Y98.209 E1.6303
G1 X149.725 Y98.012 E1.6465
G1 X149.40300000000002 Y97.848 E1.6627
G1 X149.066 Y97.719 E1.6789
G1 X148.71699999999998 Y97.625 E1.6952
G1 X148.361 Y97.569 E1.7114
G1 X147.95999999999998 Y97.548 E1.7294
G1 X143.937 Y97.548 E1.9100
G1 X129.03300000000002 Y112.452 E2.8564
G1 X120.548 Y112.452 E3.2374
G1 X135.452 Y97.548 E4.1838
G1 X126.967 Y97.548 E4.5648
G1 X112.063 Y112.452 E5.5112
G1 X108.041 Y112.452 E5.6918
G1 X107.639 Y112.431 E5.7099
G1 X107.283 Y112.374 E5.7261
G1 X106.934 Y112.281 E5.7423
G1 X106.59700000000001 Y112.152 E5.7585
G1 X106.275 Y111.988 E5.7747
G1 X105.97200000000001 Y111.791 E5.7909
G1 X105.691 Y111.564 E5.8071
G1 X105.436 Y111.309 E5.8233
G1 X105.209 Y111.02799999999999 E5.8396
G1 X105.127 Y110.902 E5.8463
G1 X118.481 Y97.548 E6.6943
G1 X109.996 Y97.548 E7.0753
G1 X104.548 Y102.99600000000001 E7.4212
G92 E0.0000
G1 E-7 F2400 ; custom retraction
; layer 5, Z = 1.000
;fan5
; feature inner perimeter
; tool H0.200 W0.480
G1 Z1.200 F1200
G1 X104.2 Y101.031 F6000
G1 Z1.000 F1200
G1 E0 F2400 ; custom un-retraction/prime
G92 E0.0000
G1 X104.22200000000001 Y100.60300000000001 E0.0154 F2700
G1 X104.285 Y100.21000000000001 E0.0297
G1 X104.388 Y99.826 E0.0440
G1 X104.53 Y99.455 E0.0583
G1 X104.711 Y99.101 E0.0725
G1 X104.92699999999999 Y98.767 E0.0868
G1 X105.17699999999999 Y98.458 E0.1011
G1 X105.458 Y98.17699999999999 E0.1154
G1 X105.767 Y97.92699999999999 E0.1297
G1 X106.101 Y97.711 E0.1439
G1 X106.455 Y97.53 E0.1582
G1 X106.826 Y97.388 E0.1725
G1 X107.21000000000001 Y97.285 E0.1868
G1 X107.60300000000001 Y97.22200000000001 E0.2011
G1 X108.031 Y97.2 E0.2165
G1 X147.969 Y97.2 E1.6511
G1 X148.397 Y97.22200000000001 E1.6665
G1 X148.79000000000002 Y97.285 E1.6808
G1 X149.174 Y97.388 E1.6950
G1 X149.54500000000002 Y97.53 E1.7093
G1 X149.899 Y97.71000000000001 E1.7236
G1 X150.233 Y97.92699999999999 E1.7379
G1 X150.542 Y98.17699999999999 E1.7522
G1 X150.82299999999998 Y98.458 E1.7664
G1 X151.07299999999998 Y98.767 E1.7807
G1 X151.29000000000002 Y99.101 E1.7950
G1 X151.47 Y99.455 E1.8093
G1 X151.612 Y99.826 E1.8236
G1 X151.716 Y100.211 E1.8379
G1 X151.77800000000002 Y100.60300000000001 E1.8521
G1 X151.8 Y101.031 E1.8675
G1 X151.8 Y108.969 E2.1527
G1 X151.77800000000002 Y109.39699999999999 E2.1681
G1 X151.716 Y109.789 E2.1823
G1 X151.612 Y110.174 E2.1966
G1 X151.47 Y110.545 E2.2109
G1 X151.29000000000002 Y110.899 E2.2252
G1 X151.07299999999998 Y111.233 E2.2395
G1 X150.82299999999998 Y111.542 E2.2538
G1 X150.542 Y111.82300000000001 E2.2680
G1 X150.233 Y112.07300000000001 E2.2823
G1 X149.899 Y112.28999999999999 E2.2966
G1 X149.54500000000002 Y112.47 E2.3109
G1 X149.174 Y112.612 E2.3252
G1 X148.79000000000002 Y112.715 E2.3394
G1 X148.397 Y112.77799999999999 E2.3537
G1 X147.969 Y112.8 E2.3691
G1 X108.031 Y112.8 E3.8037
G1 X107.60300000000001 Y112.77799999999999 E3.8191
G1 X107.21000000000001 Y112.715 E3.8334
G1 X106.826 Y112.612 E3.8477
G1 X106.455 Y112.47 E3.8620
G1 X106.101 Y112.289 E3.8763
G1 X105.767 Y112.07300000000001 E3.8905
G1 X105.458 Y111.82300000000001 E3.9048
G1 X105.17699999999999 Y111.542 E3.9191
G1 X104.92699999999999 Y111.233 E3.9334
G1 X104.711 Y110.899 E3.9477
G1 X104.53 Y110.545 E3.9620
G1 X104.388 Y110.174 E3.9762
G1 X104.285 Y109.78999999999999 E3.9905
G1 X104.22200000000001 Y109.39699999999999 E4.0048
G1 X104.2 Y108.969 E4.0202
G1 X104.2 Y101.031 E4.3053
G1 X103.72 Y101.019 F6000
G92 E0.0000
G1 X103.744 Y100.553 E0.0168 F2700
G1 X103.815 Y100.11 E0.0329
G1 X103.93 Y99.678 E0.0489
G1 X104.09100000000001 Y99.25999999999999 E0.0650
G1 X104.294 Y98.86 E0.0811
G1 X104.538 Y98.485 E0.0972
G1 X104.82 Y98.137 E0.1133
G1 X105.137 Y97.82 E0.1294
G1 X105.485 Y97.538 E0.1455
G1 X105.86 Y97.294 E0.1616
G1 X106.26 Y97.09100000000001 E0.1777
G1 X106.678 Y96.93 E0.1937
G1 X107.11 Y96.815 E0.2098
G1 X107.553 Y96.744 E0.2259
G1 X108.019 Y96.72 E0.2427
G1 X147.981 Y96.72 E1.6782
G1 X148.44799999999998 Y96.744 E1.6950
G1 X148.89 Y96.814 E1.7110
G1 X149.322 Y96.93 E1.7271
G1 X149.74099999999999 Y97.09100000000001 E1.7432
G1 X150.139 Y97.294 E1.7593
G1 X150.515 Y97.538 E1.7754
G1 X150.864 Y97.82 E1.7915
G1 X151.18 Y98.137 E1.8076
G1 X151.462 Y98.485 E1.8236
G1 X151.70600000000002 Y98.86099999999999 E1.8397
G1 X151.909 Y99.259 E1.8558
G1 X152.06900000000002 Y99.678 E1.8719
G1 X152.186 Y100.11099999999999 E1.8880
G1 X152.256 Y100.553 E1.9041
G1 X152.28 Y101.019 E1.9209
G1 X152.28 Y108.981 E2.2069
G1 X152.256 Y109.447 E2.2236
G1 X152.186 Y109.88900000000001 E2.2397
G1 X152.06900000000002 Y110.322 E2.2558
G1 X151.909 Y110.741 E2.2719
G1 X151.70600000000002 Y111.13900000000001 E2.2880
G1 X151.462 Y111.515 E2.3041
G1 X151.18 Y111.863 E2.3202
G1 X150.864 Y112.18 E2.3363
G1 X150.515 Y112.462 E2.3523
G1 X150.139 Y112.706 E2.3685
G1 X149.74099999999999 Y112.90899999999999 E2.3845
G1 X149.322 Y113.07 E2.4006
G1 X148.89 Y113.186 E2.4167
G1 X148.44799999999998 Y113.256 E2.4328
G1 X147.981 Y113.28 E2.4496
G1 X108.019 Y113.28 E3.8850
G1 X107.553 Y113.256 E3.9018
G1 X107.11 Y113.186 E3.9179
G1 X106.678 Y113.07 E3.9340
G1 X106.26 Y112.90899999999999 E3.9501
G1 X105.86 Y112.706 E3.9662
G1 X105.485 Y112.462 E3.9823
G1 X105.137 Y112.18 E3.9983
G1 X104.82 Y111.863 E4.0144
G1 X104.538 Y111.515 E4.0305
G1 X104.294 Y111.14 E4.0466
G1 X104.09100000000001 Y110.74000000000001 E4.0627
G1 X103.93 Y110.322 E4.0788
G1 X103.815 Y109.89 E4.0949
G1 X103.744 Y109.447 E4.1110
G1 X103.72 Y108.981 E4.1277
G1 X103.72 Y101.019 E4.4137
; feature outer perimeter
G1 X103.24 Y101.006 F6000
G92 E0.0000
G1 X103.26599999999999 Y100.50200000000001 E0.0181 F1800
G1 X103.344 Y100.00999999999999 E0.0360
G1 X103.473 Y99.529 E0.0539
G1 X103.652 Y99.064 E0.0718
G1 X103.878 Y98.62 E0.0897
G1 X104.149 Y98.202 E0.1076
G1 X104.463 Y97.815 E0.1255
G1 X104.815 Y97.463 E0.1434
G1 X105.202 Y97.149 E0.1613
G1 X105.62 Y96.878 E0.1792
G1 X106.064 Y96.652 E0.1971
G1 X106.529 Y96.473 E0.2150
G1 X107.01 Y96.344 E0.2329
G1 X107.503 Y96.26599999999999 E0.2508
G1 X108.006 Y96.24000000000001 E0.2689
G1 X147.994 Y96.24000000000001 E1.7053
G1 X148.498 Y96.26599999999999 E1.7234
G1 X148.99 Y96.344 E1.7413
G1 X149.471 Y96.473 E1.7592
G1 X149.936 Y96.652 E1.7771
G1 X150.38 Y96.878 E1.7950
G1 X150.798 Y97.149 E1.8129
G1 X151.185 Y97.463 E1.8308
G1 X151.537 Y97.815 E1.8487
G1 X151.85 Y98.202 E1.8666
G1 X152.122 Y98.62 E1.8845
G1 X152.348 Y99.064 E1.9024
G1 X152.526 Y99.529 E1.9203
G1 X152.656 Y100.011 E1.9382
G1 X152.73399999999998 Y100.50200000000001 E1.9561
G1 X152.76 Y101.006 E1.9742
G1 X152.76 Y108.994 E2.2611
G1 X152.73399999999998 Y109.49799999999999 E2.2792
G1 X152.656 Y109.989 E2.2971
G1 X152.526 Y110.471 E2.3150
G1 X152.348 Y110.936 E2.3329
G1 X152.122 Y111.38 E2.3508
G1 X151.851 Y111.798 E2.3687
G1 X151.537 Y112.185 E2.3866
G1 X151.185 Y112.537 E2.4045
G1 X150.798 Y112.851 E2.4224
G1 X150.38 Y113.122 E2.4403
G1 X149.936 Y113.348 E2.4582
G1 X149.471 Y113.527 E2.4761
G1 X148.99 Y113.656 E2.4940
G1 X148.498 Y113.73400000000001 E2.5119
G1 X147.994 Y113.75999999999999 E2.5300
G1 X108.006 Y113.75999999999999 E3.9664
G1 X107.503 Y113.73400000000001 E3.9845
G1 X107.01 Y113.656 E4.0024
G1 X106.529 Y113.527 E4.0203
G1 X106.064 Y113.348 E4.0382
G1 X105.62 Y113.122 E4.0561
G1 X105.202 Y112.851 E4.0740
G1 X104.815 Y112.537 E4.0919
G1 X104.463 Y112.185 E4.1098
G1 X104.149 Y111.798 E4.1277
G1 X103.878 Y111.38 E4.1456
G1 X103.652 Y110.936 E4.1635
G1 X103.473 Y110.471 E4.1813
G1 X103.344 Y109.99000000000001 E4.1992
G1 X103.26599999999999 Y109.49799999999999 E4.2171
G1 X103.24 Y108.994 E4.2353
G1 X103.24 Y101.006 E4.5222
; feature infill
; tool H0.200 W0.600
G1 X109.996 Y112.452 F6000
G92 E0.0000
G1 X104.548 Y107.00399999999999 E0.3460 F3600
G1 X104.548 Y101.041 E0.6137
G1 X104.569 Y100.63900000000001 E0.6318
G1 X104.626 Y100.283 E0.6480
G1 X104.719 Y99.934 E0.6642
G1 X104.848 Y99.59700000000001 E0.6804
G1 X105.012 Y99.275 E0.6966
G1 X105.127 Y99.098 E0.7061
G1 X118.481 Y112.452 E1.5541
G1 X126.967 Y112.452 E1.9351
G1 X112.063 Y97.548 E2.8815
G1 X120.548 Y97.548 E3.2625
G1 X135.452 Y112.452 E4.2089
G1 X143.937 Y112.452 E4.5899
G1 X129.03300000000002 Y97.548 E5.5363
G1 X137.519 Y97.548 E5.9173
G1 X150.873 Y110.902 E6.7653
G1 X150.988 Y110.725 E6.7748
G1 X151.152 Y110.40299999999999 E6.7909
G1 X151.281 Y110.066 E6.8072
G1 X151.375 Y109.71600000000001 E6.8234
G1 X151.43099999999998 Y109.36099999999999 E6.8396
G1 X151.452 Y108.96000000000001 E6.8576
G1 X151.452 Y102.99600000000001 E7.1254
G1 X146.00400000000002 Y97.548 E7.4713
G92 E0.0000
G1 E-7 F2400 ; custom retraction
; layer 6, Z = 1.200
; feature inner perimeter
; tool H0.200 W0.480
G1 Z1.400 F1200
G1 X147.969 Y97.2 F6000
G1 Z1.200 F1200
G1 E0 F2400 ; custom un-retraction/prime
G92 E0.0000
G1 X148.397 Y97.22200000000001 E0.0154 F2700
G1 X148.79000000000002 Y97.285 E0.0297
G1 X149.174 Y97.388 E0.0440
G1 X149.54500000000002 Y97.53 E0.0583
G1 X149.899 Y97.71000000000001 E0.0725
G1 X150.233 Y97.92699999999999 E0.0868
G1 X150.542 Y98.17699999999999 E0.1011
G1 X150.82299999999998 Y98.458 E0.1154
G1 X151.07299999999998 Y98.767 E0.1296
G1 X151.29000000000002 Y99.101 E0.1440
G1 X151.47 Y99.455 E0.1582
G1 X151.612 Y99.826 E0.1725
G1 X151.716 Y100.211 E0.1868
G1 X151.77800000000002 Y100.60300000000001 E0.2011
G1 X151.8 Y101.031 E0.2165
G1 X151.8 Y108.969 E0.5016
G1 X151.77800000000002 Y109.39699999999999 E0.5170
G1 X151.716 Y109.789 E0.5313
G1 X151.612 Y110.174 E0.5456
G1 X151.47 Y110.545 E0.5599
G1 X151.29000000000002 Y110.899 E0.5741
G1 X151.07299999999998 Y111.233 E0.5884
G1 X150.82299999999998 Y111.542 E0.6027
G1 X150.542 Y111.82300000000001 E0.6170
G1 X150.233 Y112.07300000000001 E0.6312
G1 X149.899 Y112.28999999999999 E0.6455
G1 X149.54500000000002 Y112.47 E0.6598
G1 X149.174 Y112.612 E0.6741
G1 X148.79000000000002 Y112.715 E0.6884
G1 X148.397 Y112.77799999999999 E0.7027
G1 X147.969 Y112.8 E0.7181
G1 X108.031 Y112.8 E2.1527
G1 X107.60300000000001 Y112.77799999999999 E2.1681
G1 X107.21000000000001 Y112.715 E2.1824
G1 X106.826 Y112.612 E2.1966
G1 X106.455 Y112.47 E2.2109
G1 X106.101 Y112.289 E2.2252
G1 X105.767 Y112.07300000000001 E2.2395
G1 X105.458 Y111.82300000000001 E2.2538
G1 X105.17699999999999 Y111.542 E2.2680
G1 X104.92699999999999 Y111.233 E2.2823
G1 X104.711 Y110.899 E2.2966
G1 X104.53 Y110.545 E2.3109
G1 X104.388 Y110.174 E2.3252
G1 X104.285 Y109.78999999999999 E2.3394
G1 X104.22200000000001 Y109.39699999999999 E2.3537
G1 X104.2 Y108.969 E2.3691
G1 X104.2 Y101.031 E2.6543
G1 X104.22200000000001 Y100.60300000000001 E2.6697
G1 X104.285 Y100.21000000000001 E2.6840
G1 X104.388 Y99.826 E2.6982
G1 X104.53 Y99.455 E2.7125
G1 X104.711 Y99.101 E2.7268
G1 X104.92699999999999 Y98.767 E2.7411
G1 X105.17699999999999 Y98.458 E2.7554
G1 X105.458 Y98.17699999999999 E2.7696
G1 X105.767 Y97.92699999999999 E2.7839
G1 X106.101 Y97.711 E2.7982
G1 X106.455 Y97.53 E2.8125
G1 X106.826 Y97.388 E2.8268
G1 X107.21000000000001 Y97.285 E2.8410
G1 X107.60300000000001 Y97.22200000000001 E2.8553
G1 X108.031 Y97.2 E2.8707
G1 X147.969 Y97.2 E4.3053
G1 X147.981 Y96.72 F6000
G92 E0.0000
G1 X148.44799999999998 Y96.744 E0.0168 F2700
G1 X148.89 Y96.814 E0.0329
G1 X149.322 Y96.93 E0.0489
G1 X149.74099999999999 Y97.09100000000001 E0.0650
G1 X150.139 Y97.294 E0.0811
G1 X150.515 Y97.538 E0.0972
G1 X150.864 Y97.82 E0.1133
G1 X151.18 Y98.137 E0.1294
G1 X151.462 Y98.485 E0.1455
G1 X151.70600000000002 Y98.86099999999999 E0.1616
G1 X151.909 Y99.259 E0.1777
G1 X152.06900000000002 Y99.678 E0.1937
G1 X152.186 Y100.11099999999999 E0.2098
G1 X152.256 Y100.553 E0.2259
G1 X152.28 Y101.019 E0.2427
G1 X152.28 Y108.981 E0.5287
G1 X152.256 Y109.447 E0.5455
G1 X152.186 Y109.88900000000001 E0.5615
G1 X152.06900000000002 Y110.322 E0.5777
G1 X151.909 Y110.741 E0.5937
G1 X151.70600000000002 Y111.13900000000001 E0.6098
G1 X151.462 Y111.515 E0.6259
G1 X151.18 Y111.863 E0.6420
G1 X150.864 Y112.18 E0.6581
G1 X150.515 Y112.462 E0.6742
G1 X150.139 Y112.706 E0.6903
G1 X149.74099999999999 Y112.90899999999999 E0.7063
G1 X149.322 Y113.07 E0.7225
G1 X148.89 Y113.186 E0.7385
G1 X148.44799999999998 Y113.256 E0.7546
G1 X147.981 Y113.28 E0.7714
G1 X108.019 Y113.28 E2.2069
G1 X107.553 Y113.256 E2.2236
G1 X107.11 Y113.186 E2.2397
G1 X106.678 Y113.07 E2.2558
G1 X106.26 Y112.90899999999999 E2.2719
G1 X105.86 Y112.706 E2.2880
G1 X105.485 Y112.462 E2.3041
G1 X105.137 Y112.18 E2.3202
G1 X104.82 Y111.863 E2.3363
G1 X104.538 Y111.515 E2.3524
G1 X104.294 Y111.14 E2.3684
G1 X104.09100000000001 Y110.74000000000001 E2.3845
G1 X103.93 Y110.322 E2.4006
G1 X103.815 Y109.89 E2.4167
G1 X103.744 Y109.447 E2.4328
G1 X103.72 Y108.981 E2.4496
G1 X103.72 Y101.019 E2.7356
G1 X103.744 Y100.553 E2.7523
G1 X103.815 Y100.11 E2.7684
G1 X103.93 Y99.678 E2.7845
G1 X104.09100000000001 Y99.25999999999999 E2.8006
G1 X104.294 Y98.86 E2.8167
G1 X104.538 Y98.485 E2.8328
G1 X104.82 Y98.137 E2.8489
G1 X105.137 Y97.82 E2.8650
G1 X105.485 Y97.538 E2.8811
G1 X105.86 Y97.294 E2.8971
G1 X106.26 Y97.09100000000001 E2.9132
G1 X106.678 Y96.93 E2.9293
G1 X107.11 Y96.815 E2.9454
G1 X107.553 Y96.744 E2.9615
G1 X108.019 Y96.72 E2.9783
G1 X147.981 Y96.72 E4.4137
; feature outer perimeter
G1 X147.994 Y96.24000000000001 F6000
G92 E0.0000
G1 X148.498 Y96.26599999999999 E0.0181 F1800
G1 X148.99 Y96.344 E0.0360
G1 X149.471 Y96.473 E0.0539
G1 X149.936 Y96.652 E0.0718
G1 X150.38 Y96.878 E0.0897
G1 X150.798 Y97.149 E0.1076
G1 X151.185 Y97.463 E0.1255
G1 X151.537 Y97.815 E0.1434
G1 X151.85 Y98.202 E0.1613
G1 X152.122 Y98.62 E0.1792
G1 X152.348 Y99.064 E0.1971
G1 X152.526 Y99.529 E0.2150
G1 X152.656 Y100.011 E0.2329
G1 X152.73399999999998 Y100.50200000000001 E0.2508
G1 X152.76 Y101.006 E0.2689
G1 X152.76 Y108.994 E0.5558
G1 X152.73399999999998 Y109.49799999999999 E0.5739
G1 X152.656 Y109.989 E0.5918
G1 X152.526 Y110.471 E0.6097
G1 X152.348 Y110.936 E0.6276
G1 X152.122 Y111.38 E0.6455
G1 X151.851 Y111.798 E0.6634
G1 X151.537 Y112.185 E0.6813
G1 X151.185 Y112.537 E0.6992
G1 X150.798 Y112.851 E0.7171
G1 X150.38 Y113.122 E0.7350
G1 X149.936 Y113.348 E0.7529
G1 X149.471 Y113.527 E0.7708
G1 X148.99 Y113.656 E0.7887
G1 X148.498 Y113.73400000000001 E0.8066
G1 X147.994 Y113.75999999999999 E0.8247
G1 X108.006 Y113.75999999999999 E2.2611
G1 X107.503 Y113.73400000000001 E2.2792
G1 X107.01 Y113.656 E2.2971
G1 X106.529 Y113.527 E2.3150
G1 X106.064 Y113.348 E2.3329
G1 X105.62 Y113.122 E2.3508
G1 X105.202 Y112.851 E2.3687
G1 X104.815 Y112.537 E2.3866
G1 X104.463 Y112.185 E2.4045
G1 X104.149 Y111.798 E2.4224
G1 X103.878 Y111.38 E2.4403
G1 X103.652 Y110.936 E2.4582
G1 X103.473 Y110.471 E2.4761
G1 X103.344 Y109.99000000000001 E2.4940
G1 X103.26599999999999 Y109.49799999999999 E2.5119
G1 X103.24 Y108.994 E2.5300
G1 X103.24 Y101.006 E2.8169
G1 X103.26599999999999 Y100.50200000000001 E2.8350
G1 X103.344 Y100.00999999999999 E2.8529
G1 X103.473 Y99.529 E2.8708
G1 X103.652 Y99.064 E2.8887
G1 X103.878 Y98.62 E2.9066
G1 X104.149 Y98.202 E2.9245
G1 X104.463 Y97.815 E2.9424
G1 X104.815 Y97.463 E2.9603
G1 X105.202 Y97.149 E2.9782
G1 X105.62 Y96.878 E2.9961
G1 X106.064 Y96.652 E3.0140
G1 X106.529 Y96.473 E3.0319
G1 X107.01 Y96.344 E3.0498
G1 X107.503 Y96.26599999999999 E3.0677
G1 X108.006 Y96.24000000000001 E3.0858
G1 X147.994 Y96.24000000000001 E4.5222
; feature infill
; tool H0.200 W0.600
G1 X151.452 Y107.00399999999999 F6000
G92 E0.0000
G1 X146.00400000000002 Y112.452 E0.3460 F3600
G1 X137.519 Y112.452 E0.7270
G1 X150.873 Y99.098 E1.5749
G1 X150.791 Y98.97200000000001 E1.5817
G1 X150.564 Y98.691 E1.5979
G1 X150.309 Y98.436 E1.6141
G1 X150.02800000000002 Y98.209 E1.6303
G1 X149.725 Y98.012 E1.6465
G1 X149.40300000000002 Y97.848 E1.6627
G1 X149.066 Y97.719 E1.6789
G1 X148.71699999999998 Y97.625 E1.6952
G1 X148.361 Y97.569 E1.7114
G1 X147.95999999999998 Y97.548 E1.7294
G1 X143.937 Y97.548 E1.9100
G1 X129.03300000000002 Y112.452 E2.8564
G1 X120.548 Y112.452 E3.2374
G1 X135.452 Y97.548 E4.1838
G1 X126.967 Y97.548 E4.5648
G1 X112.063 Y112.452 E5.5112
G1 X108.041 Y112.452 E5.6918
G1 X107.639 Y112.431 E5.7099
G1 X107.283 Y112.374 E5.7261
G1 X106.934 Y112.281 E5.7423
G1 X106.59700000000001 Y112.152 E5.7585
G1 X106.275 Y111.988 E5.7747
G1 X105.97200000000001 Y111.791 E5.7909
G1 X105.691 Y111.564 E5.8071
G1 X105.436 Y111.309 E5.8233
G1 X105.209 Y111.02799999999999 E5.8396
G1 X105.127 Y110.902 E5.8463
G1 X118.481 Y97.548 E6.6943
G1 X109.996 Y97.548 E7.0753
G1 X104.548 Y102.99600000000001 E7.4212
G92 E0.0000
G1 E-7 F2400 ; custom retraction
; layer 7, Z = 1.400
; feature inner perimeter
; tool H0.200 W0.480
G1 Z1.600 F1200
G1 X104.2 Y101.031 F6000
G1 Z1.400 F1200
G1 E0 F2400 ; custom un-retraction/prime
G92 E0.0000
G1 X104.22200000000001 Y100.60300000000001 E0.0154 F2700
G1 X104.285 Y100.21000000000001 E0.0297
G1 X104.388 Y99.826 E0.0440
G1 X104.53 Y99.455 E0.0583
G1 X104.711 Y99.101 E0.0725
G1 X104.92699999999999 Y98.767 E0.0868
G1 X105.17699999999999 Y98.458 E0.1011
G1 X105.458 Y98.17699999999999 E0.1154
G1 X105.767 Y97.92699999999999 E0.1297
G1 X106.101 Y97.711 E0.1439
G1 X106.455 Y97.53 E0.1582
G1 X106.826 Y97.388 E0.1725
G1 X107.21000000000001 Y97.285 E0.1868
G1 X107.60300000000001 Y97.22200000000001 E0.2011
G1 X108.031 Y97.2 E0.2165
G1 X147.969 Y97.2 E1.6511
G1 X148.397 Y97.22200000000001 E1.6665
G1 X148.79000000000002 Y97.285 E1.6808
G1 X149.174 Y97.388 E1.6950
G1 X149.54500000000002 Y97.53 E1.7093
G1 X149.899 Y97.71000000000001 E1.7236
G1 X150.233 Y97.92699999999999 E1.7379
G1 X150.542 Y98.17699999999999 E1.7522
G1 X150.82299999999998 Y98.458 E1.7664
G1 X151.07299999999998 Y98.767 E1.7807
G1 X151.29000000000002 Y99.101 E1.7950
G1 X151.47 Y99.455 E1.8093
G1 X151.612 Y99.826 E1.8236
G1 X151.716 Y100.211 E1.8379
G1 X151.77800000000002 Y100.60300000000001 E1.8521
G1 X151.8 Y101.031 E1.8675
G1 X151.8 Y108.969 E2.1527
G1 X151.77800000000002 Y109.39699999999999 E2.1681
G1 X151.716 Y109.789 E2.1823
G1 X151.612 Y110.174 E2.1966
G1 X151.47 Y110.545 E2.2109
G1 X151.29000000000002 Y110.899 E2.2252
G1 X151.07299999999998 Y111.233 E2.2395
G1 X150.82299999999998 Y111.542 E2.2538
G1 X150.542 Y111.82300000000001 E2.2680
G1 X150.233 Y112.07300000000001 E2.2823
G1 X149.899 Y112.28999999999999 E2.2966
G1 X149.54500000000002 Y112.47 E2.3109
G1 X149.174 Y112.612 E2.3252
G1 X148.79000000000002 Y112.715 E2.3394
G1 X148.397 Y112.77799999999999 E2.3537
G1 X147.969 Y112.8 E2.3691
G1 X107.849 Y112.78999999999999 E3.8103
G1 X107.60300000000001 Y112.77799999999999 E3.8191
G1 X107.21000000000001 Y112.715 E3.8334
G1 X106.826 Y112.612 E3.8477
G1 X106.455 Y112.47 E3.8620
G1 X106.101 Y112.289 E3.8763
G1 X105.767 Y112.07300000000001 E3.8905
G1 X105.458 Y111.82300000000001 E3.9048
G1 X105.17699999999999 Y111.542 E3.9191
G1 X104.92699999999999 Y111.233 E3.9334
G1 X104.711 Y110.899 E3.9477
G1 X104.53 Y110.545 E3.9620
G1 X104.388 Y110.174 E3.9762
G1 X104.285 Y109.78999999999999 E3.9905
G1 X104.22200000000001 Y109.39699999999999 E4.0048
G1 X104.2 Y108.969 E4.0202
G1 X104.2 Y101.031 E4.3053
G1 X103.72 Y101.019 F6000
G92 E0.0000
G1 X103.744 Y100.553 E0.0168 F2700
G1 X103.815 Y100.11 E0.0329
G1 X103.93 Y99.678 E0.0489
G1 X104.09100000000001 Y99.25999999999999 E0.0650
G1 X104.294 Y98.86 E0.0811
G1 X104.538 Y98.485 E0.0972
G1 X104.82 Y98.137 E0.1133
G1 X105.137 Y97.82 E0.1294
G1 X105.485 Y97.538 E0.1455
G1 X105.86 Y97.294 E0.1616
G1 X106.26 Y97.09100000000001 E0.1777
G1 X106.678 Y96.93 E0.1937
G1 X107.11 Y96.815 E0.2098
G1 X107.553 Y96.744 E0.2259
G1 X108.019 Y96.72 E0.2427
G1 X147.981 Y96.72 E1.6782
G1 X148.44799999999998 Y96.744 E1.6950
G1 X148.89 Y96.814 E1.7110
G1 X149.322 Y96.93 E1.7271
G1 X149.74099999999999 Y97.09100000000001 E1.7432
G1 X150.139 Y97.294 E1.7593
G1 X150.515 Y97.538 E1.7754
G1 X150.864 Y97.82 E1.7915
G1 X151.18 Y98.137 E1.8076
G1 X151.462 Y98.485 E1.8236
G1 X151.70600000000002 Y98.86099999999999 E1.8397
G1 X151.909 Y99.259 E1.8558
G1 X152.06900000000002 Y99.678 E1.8719
G1 X152.186 Y100.11099999999999 E1.8880
G1 X152.256 Y100.553 E1.9041
G1 X152.28 Y101.019 E1.9209
G1 X152.28 Y108.981 E2.2069
G1 X152.256 Y109.447 E2.2236
G1 X152.186 Y109.88900000000001 E2.2397
G1 X152.06900000000002 Y110.322 E2.2558
G1 X151.909 Y110.741 E2.2719
G1 X151.70600000000002 Y111.13900000000001 E2.2880
G1 X151.462 Y111.515 E2.3041
G1 X151.18 Y111.863 E2.3202
G1 X150.864 Y112.18 E2.3363
G1 X150.515 Y112.462 E2.3523
G1 X150.139 Y112.706 E2.3685
G1 X149.74099999999999 Y112.90899999999999 E2.3845
G1 X149.322 Y113.07 E2.4006
G1 X148.89 Y113.186 E2.4167
G1 X148.44799999999998 Y113.256 E2.4328
G1 X147.981 Y113.28 E2.4496
G1 X107.836 Y113.27000000000001 E3.8916
G1 X107.553 Y113.256 E3.9018
G1 X107.11 Y113.186 E3.9179
G1 X106.678 Y113.07 E3.9340
G1 X106.26 Y112.90899999999999 E3.9501
G1 X105.86 Y112.706 E3.9662
G1 X105.485 Y112.462 E3.9823
G1 X105.137 Y112.18 E3.9983
G1 X104.82 Y111.863 E4.0144
G1 X104.538 Y111.515 E4.0305
G1 X104.294 Y111.14 E4.0466
G1 X104.09100000000001 Y110.74000000000001 E4.0627
G1 X103.93 Y110.322 E4.0788
G1 X103.815 Y109.89 E4.0949
G1 X103.744 Y109.447 E4.1110
G1 X103.72 Y108.981 E4.1277
G1 X103.72 Y101.019 E4.4137
; feature outer perimeter
G1 X103.24 Y101.006 F6000
G92 E0.0000
G1 X103.26599999999999 Y100.50200000000001 E0.0181 F1800
G1 X103.344 Y100.00999999999999 E0.0360
G1 X103.473 Y99.529 E0.0539
G1 X103.652 Y99.064 E0.0718
G1 X103.878 Y98.62 E0.0897
G1 X104.149 Y98.202 E0.1076
G1 X104.463 Y97.815 E0.1255
G1 X104.815 Y97.463 E0.1434
G1 X105.202 Y97.149 E0.1613
G1 X105.62 Y96.878 E0.1792
G1 X106.064 Y96.652 E0.1971
G1 X106.529 Y96.473 E0.2150
G1 X107.01 Y96.344 E0.2329
G1 X107.503 Y96.26599999999999 E0.2508
G1 X108.006 Y96.24000000000001 E0.2689
G1 X147.994 Y96.24000000000001 E1.7053
G1 X148.498 Y96.26599999999999 E1.7234
G1 X148.99 Y96.344 E1.7413
G1 X149.471 Y96.473 E1.7592
G1 X149.936 Y96.652 E1.7771
G1 X150.38 Y96.878 E1.7950
G1 X150.798 Y97.149 E1.8129
G1 X151.185 Y97.463 E1.8308
G1 X151.537 Y97.815 E1.8487
G1 X151.85 Y98.202 E1.8666
G1 X152.122 Y98.62 E1.8845
G1 X152.348 Y99.064 E1.9024
G1 X152.526 Y99.529 E1.9203
G1 X152.656 Y100.011 E1.9382
G1 X152.73399999999998 Y100.50200000000001 E1.9561
G1 X152.76 Y101.006 E1.9742
G1 X152.76 Y108.994 E2.2611
G1 X152.73399999999998 Y109.49799999999999 E2.2792
G1 X152.656 Y109.989 E2.2971
G1 X152.526 Y110.471 E2.3150
G1 X152.348 Y110.936 E2.3329
G1 X152.122 Y111.38 E2.3508
G1 X151.851 Y111.798 E2.3687
G1 X151.537 Y112.185 E2.3866
G1 X151.185 Y112.537 E2.4045
G1 X150.798 Y112.851 E2.4224
G1 X150.38 Y113.122 E2.4403
G1 X149.936 Y113.348 E2.4582
G1 X149.471 Y113.527 E2.4761
G1 X148.99 Y113.656 E2.4940
G1 X148.498 Y113.73400000000001 E2.5119
G1 X147.994 Y113.75999999999999 E2.5300
G1 X107.82300000000001 Y113.75 E3.9729
G1 X107.503 Y113.73400000000001 E3.9845
G1 X107.01 Y113.656 E4.0024
G1 X106.529 Y113.527 E4.0203
G1 X106.064 Y113.348 E4.0382
G1 X105.62 Y113.122 E4.0561
G1 X105.202 Y112.851 E4.0740
G1 X104.815 Y112.537 E4.0919
G1 X104.463 Y112.185 E4.1098
G1 X104.149 Y111.798 E4.1277
G1 X103.878 Y111.38 E4.1455
G1 X103.652 Y110.936 E4.1634
G1 X103.473 Y110.471 E4.1813
G1 X103.344 Y109.99000000000001 E4.1992
G1 X103.26599999999999 Y109.49799999999999 E4.2171
G1 X103.24 Y108.994 E4.2353
G1 X103.24 Y101.006 E4.5222
; feature solid layer
G1 X110.3 Y106.98599999999999 F6000
G92 E0.0000
G1 X115.818 Y112.50399999999999 E0.2803 F2880
G1 X116.497 Y112.50399999999999 E0.3047
G1 X110.979 Y106.98599999999999 E0.5850
G1 X111.658 Y106.98599999999999 E0.6094
G1 X117.176 Y112.505 E0.8898
G1 X117.85499999999999 Y112.505 E0.9141
G1 X112.337 Y106.98599999999999 E1.1945
G1 X113.01599999999999 Y106.98599999999999 E1.2189
G1 X118.53399999999999 Y112.505 E1.4992
G1 X119.213 Y112.505 E1.5236
G1 X113.694 Y106.98599999999999 E1.8040
G1 X114.37299999999999 Y106.98599999999999 E1.8284
G1 X119.892 Y112.505 E2.1087
G1 X120.571 Y112.505 E2.1331
G1 X115.05199999999999 Y106.98599999999999 E2.4135
G1 X115.363 Y106.98599999999999 E2.4247
G1 X115.363 Y106.618 E2.4379
G1 X121.25 Y112.506 E2.7370
G1 X121.929 Y112.506 E2.7613
G1 X115.363 Y105.94 E3.0949
G1 X115.363 Y105.261 E3.1193
G1 X122.608 Y112.506 E3.4874
G1 X123.287 Y112.506 E3.5117
G1 X115.363 Y104.582 E3.9143
G1 X115.363 Y103.90299999999999 E3.9387
G1 X123.96600000000001 Y112.506 E4.3757
G1 X124.64500000000001 Y112.506 E4.4001
G1 X115.363 Y103.22399999999999 E4.8716
G1 X115.363 Y102.545 E4.8960
G1 X125.324 Y112.507 E5.4020
G1 X126.003 Y112.507 E5.4264
G1 X115.363 Y101.86699999999999 E5.9670
G1 X106.773 Y112.28399999999999 F6000
G92 E0.0000
G1 X104.71600000000001 Y110.227 E0.1045 F2880
G1 X104.662 Y110.08500000000001 E0.1099
G1 X104.56700000000001 Y109.72999999999999 E0.1231
G1 X104.509 Y109.36699999999999 E0.1363
G1 X104.508 Y109.34 E0.1373
G1 X107.66 Y112.49199999999999 E0.2975
G1 X107.76599999999999 Y112.49799999999999 E0.3013
G1 X107.856 Y112.50200000000001 E0.3045
G1 X108.35 Y112.503 E0.3222
G1 X104.488 Y108.64099999999999 E0.5184
G1 X104.488 Y107.962 E0.5428
G1 X109.029 Y112.503 E0.7735
G1 X109.708 Y112.503 E0.7979
G1 X104.488 Y107.283 E1.0630
G1 X104.488 Y106.604 E1.0874
G1 X110.387 Y112.503 E1.3870
G1 X111.066 Y112.503 E1.4114
G1 X104.488 Y105.926 E1.7456
G1 X104.488 Y105.247 E1.7700
G1 X111.745 Y112.503 E2.1386
G1 X112.424 Y112.50399999999999 E2.1630
G1 X104.488 Y104.568 E2.5661
G1 X104.488 Y103.88900000000001 E2.5905
G1 X113.10300000000001 Y112.50399999999999 E3.0281
G1 X113.782 Y112.50399999999999 E3.0525
G1 X104.488 Y103.21000000000001 E3.5246
G1 X104.488 Y102.531 E3.5490
G1 X114.461 Y112.50399999999999 E4.0556
G1 X115.13900000000001 Y112.50399999999999 E4.0800
G1 X109.622 Y106.98599999999999 E4.3603
G1 X109.008 Y106.98599999999999 E4.3823
G1 X109.008 Y106.37299999999999 E4.4044
G1 X104.488 Y101.85300000000001 E4.6340
G1 X104.488 Y101.174 E4.6584
G1 X109.008 Y105.694 E4.8880
G1 X109.008 Y105.015 E4.9124
G1 X104.525 Y100.532 E5.1401
G1 X104.56700000000001 Y100.27000000000001 E5.1496
G1 X104.646 Y99.97399999999999 E5.1606
G1 X109.008 Y104.336 E5.3822
G1 X109.008 Y103.657 E5.4066
G1 X104.837 Y99.487 E5.6185
G1 X104.96000000000001 Y99.245 E5.6282
G1 X105.084 Y99.055 E5.6364
G1 X109.008 Y102.979 E5.8357
G1 X109.008 Y102.3 E5.8601
G1 X105.377 Y98.669 E6.0445
G1 X105.392 Y98.65100000000001 E6.0454
G1 X105.651 Y98.392 E6.0585
G1 X105.72200000000001 Y98.33500000000001 E6.0618
G1 X109.008 Y101.62100000000001 E6.2287
G1 X109.008 Y101.00200000000001 E6.2510
G1 X109.068 Y101.00200000000001 E6.2531
G1 X106.112 Y98.04599999999999 E6.4033
G1 X106.245 Y97.96000000000001 E6.4090
G1 X106.55 Y97.805 E6.4212
G1 X109.747 Y101.00200000000001 E6.5837
G1 X110.426 Y101.00200000000001 E6.6080
G1 X107.049 Y97.626 E6.7796
G1 X107.27 Y97.56700000000001 E6.7878
G1 X107.615 Y97.512 E6.8003
G1 X111.10499999999999 Y101.00200000000001 E6.9776
G1 X111.783 Y101.00200000000001 E7.0020
G1 X108.269 Y97.488 E7.1805
G1 X108.94800000000001 Y97.488 E7.2049
G1 X112.462 Y101.00200000000001 E7.3834
G1 X113.14099999999999 Y101.00200000000001 E7.4078
G1 X109.627 Y97.488 E7.5863
G1 X110.306 Y97.488 E7.6107
G1 X113.82 Y101.00200000000001 E7.7892
G1 X114.499 Y101.00200000000001 E7.8136
G1 X110.98400000000001 Y97.488 E7.9921
G1 X111.663 Y97.488 E8.0165
G1 X115.178 Y101.00200000000001 E8.1950
G1 X115.363 Y101.00200000000001 E8.2017
G1 X115.363 Y101.188 E8.2083
G1 X126.682 Y112.507 E8.7834
G1 X127.36099999999999 Y112.507 E8.8077
G1 X112.342 Y97.488 E9.5707
G1 X113.021 Y97.488 E9.5951
G1 X128.04 Y112.507 E10.3581
G1 X128.719 Y112.507 E10.3825
G1 X113.7 Y97.488 E11.1454
G1 X114.37899999999999 Y97.488 E11.1698
G1 X129.398 Y112.50800000000001 E11.9328
G1 X130.077 Y112.50800000000001 E11.9572
G1 X115.057 Y97.488 E12.7202
G1 X115.73599999999999 Y97.488 E12.7446
G1 X130.756 Y112.50800000000001 E13.5076
G1 X131.435 Y112.50800000000001 E13.5320
G1 X116.41499999999999 Y97.488 E14.2950
G1 X117.094 Y97.488 E14.3194
G1 X132.114 Y112.50800000000001 E15.0824
G1 X132.793 Y112.50800000000001 E15.1068
G1 X117.773 Y97.488 E15.8698
G1 X118.452 Y97.488 E15.8942
G1 X133.472 Y112.509 E16.6573
G1 X134.151 Y112.509 E16.6817
G1 X119.13 Y97.488 E17.4447
G1 X119.809 Y97.488 E17.4691
G1 X134.82999999999998 Y112.509 E18.2321
G1 X135.50900000000001 Y112.509 E18.2565
G1 X120.488 Y97.488 E19.0196
G1 X121.167 Y97.488 E19.0440
G1 X136.188 Y112.509 E19.8071
G1 X136.867 Y112.509 E19.8314
G1 X121.846 Y97.488 E20.5945
G1 X122.524 Y97.488 E20.6189
G1 X137.546 Y112.509 E21.3820
G1 X138.225 Y112.50999999999999 E21.4064
G1 X123.203 Y97.488 E22.1695
G1 X123.882 Y97.488 E22.1939
G1 X138.904 Y112.50999999999999 E22.9570
G1 X139.583 Y112.50999999999999 E22.9814
G1 X124.561 Y97.488 E23.7445
G1 X125.24000000000001 Y97.488 E23.7689
G1 X140.262 Y112.50999999999999 E24.5320
G1 X140.941 Y112.50999999999999 E24.5564
G1 X125.919 Y97.488 E25.3195
G1 X126.59700000000001 Y97.488 E25.3439
G1 X141.62 Y112.50999999999999 E26.1070
G1 X142.299 Y112.511 E26.1314
G1 X127.27600000000001 Y97.488 E26.8946
G1 X127.955 Y97.488 E26.9190
G1 X142.978 Y112.511 E27.6821
G1 X143.65699999999998 Y112.511 E27.7065
G1 X128.63400000000001 Y97.488 E28.4697
G1 X129.313 Y97.488 E28.4941
G1 X144.336 Y112.511 E29.2572
G1 X145.015 Y112.511 E29.2816
G1 X129.992 Y97.488 E30.0448
G1 X130.67000000000002 Y97.488 E30.0692
G1 X145.69400000000002 Y112.511 E30.8324
G1 X146.373 Y112.512 E30.8568
G1 X140.847 Y106.98599999999999 E31.1375
G1 X140.637 Y106.98599999999999 E31.1450
G1 X140.637 Y106.77600000000001 E31.1526
G1 X131.349 Y97.488 E31.6244
G1 X132.028 Y97.488 E31.6488
G1 X140.637 Y106.09700000000001 E32.0861
G1 X140.637 Y105.418 E32.1105
G1 X132.707 Y97.488 E32.5133
G1 X133.386 Y97.488 E32.5377
G1 X140.637 Y104.739 E32.9061
G1 X140.637 Y104.061 E32.9305
G1 X134.064 Y97.488 E33.2644
G1 X134.743 Y97.488 E33.2888
G1 X140.637 Y103.382 E33.5882
G1 X140.637 Y102.703 E33.6125
G1 X135.422 Y97.488 E33.8775
G1 X136.101 Y97.488 E33.9019
G1 X140.637 Y102.024 E34.1323
G1 X140.637 Y101.345 E34.1567
G1 X136.78 Y97.488 E34.3526
G1 X137.459 Y97.488 E34.3770
G1 X140.973 Y101.00200000000001 E34.5555
G1 X141.652 Y101.00200000000001 E34.5799
G1 X138.137 Y97.488 E34.7584
G1 X138.816 Y97.488 E34.7828
G1 X142.32999999999998 Y101.00200000000001 E34.9613
G1 X143.00900000000001 Y101.00200000000001 E34.9857
G1 X139.495 Y97.488 E35.1642
G1 X140.174 Y97.488 E35.1886
G1 X143.688 Y101.00200000000001 E35.3671
G1 X144.36700000000002 Y101.00200000000001 E35.3915
G1 X140.853 Y97.488 E35.5701
G1 X141.53199999999998 Y97.488 E35.5944
G1 X145.046 Y101.00200000000001 E35.7730
G1 X145.725 Y101.00200000000001 E35.7973
G1 X142.20999999999998 Y97.488 E35.9759
G1 X142.889 Y97.488 E36.0002
G1 X146.40300000000002 Y101.00200000000001 E36.1788
G1 X146.99200000000002 Y101.00200000000001 E36.1999
G1 X146.99200000000002 Y101.59100000000001 E36.2211
G1 X151.512 Y106.11099999999999 E36.4507
G1 X151.512 Y105.432 E36.4751
G1 X143.56799999999998 Y97.488 E36.8786
G1 X144.247 Y97.488 E36.9030
G1 X151.512 Y104.753 E37.2721
G1 X151.512 Y104.074 E37.2964
G1 X144.926 Y97.488 E37.6310
G1 X145.60399999999998 Y97.488 E37.6554
G1 X151.512 Y103.396 E37.9555
G1 X151.512 Y102.717 E37.9799
G1 X146.28300000000002 Y97.488 E38.2455
G1 X146.962 Y97.488 E38.2699
G1 X151.512 Y102.038 E38.5010
G1 X151.512 Y101.35900000000001 E38.5254
G1 X147.64100000000002 Y97.488 E38.7221
G1 X147.961 Y97.488 E38.7336
G1 X148.09699999999998 Y97.495 E38.7385
G1 X148.34 Y97.50800000000001 E38.7472
G1 X151.49200000000002 Y100.661 E38.9074
G1 X151.49099999999999 Y100.63300000000001 E38.9084
G1 X151.46800000000002 Y100.48599999999999 E38.9137
G1 X151.434 Y100.271 E38.9215
G1 X151.338 Y99.91499999999999 E38.9348
G1 X151.28300000000002 Y99.773 E38.9402
G1 X149.227 Y97.71600000000001 E39.0447
G1 X146.99200000000002 Y102.27000000000001 F6000
G92 E0.0000
G1 X151.512 Y106.78999999999999 E0.2296 F2880
G1 X151.512 Y107.468 E0.2540
G1 X146.99200000000002 Y102.94800000000001 E0.4836
G1 X146.99200000000002 Y103.62700000000001 E0.5080
G1 X151.512 Y108.14699999999999 E0.7376
G1 X151.512 Y108.826 E0.7620
G1 X146.99200000000002 Y104.306 E0.9916
G1 X146.99200000000002 Y104.985 E1.0160
G1 X151.475 Y109.468 E1.2437
G1 X151.434 Y109.729 E1.2532
G1 X151.35399999999998 Y110.02600000000001 E1.2643
G1 X146.99200000000002 Y105.664 E1.4858
G1 X146.99200000000002 Y106.343 E1.5102
G1 X151.163 Y110.51400000000001 E1.7221
G1 X151.04000000000002 Y110.755 E1.7318
G1 X150.916 Y110.945 E1.7400
G1 X146.957 Y106.98599999999999 E1.9411
G1 X146.27800000000002 Y106.98599999999999 E1.9655
G1 X150.623 Y111.331 E2.1862
G1 X150.608 Y111.34899999999999 E2.1871
G1 X150.349 Y111.608 E2.2002
G1 X150.27800000000002 Y111.66499999999999 E2.2035
G1 X145.599 Y106.98599999999999 E2.4412
G1 X144.92000000000002 Y106.98599999999999 E2.4656
G1 X149.888 Y111.95400000000001 E2.7179
G1 X149.755 Y112.03999999999999 E2.7236
G1 X149.45 Y112.195 E2.7359
G1 X144.24099999999999 Y106.98599999999999 E3.0005
G1 X143.563 Y106.98599999999999 E3.0249
G1 X148.951 Y112.374 E3.2986
G1 X148.73000000000002 Y112.43299999999999 E3.3068
G1 X148.385 Y112.488 E3.3193
G1 X142.88400000000001 Y106.98599999999999 E3.5988
G1 X142.20499999999998 Y106.98599999999999 E3.6232
G1 X147.731 Y112.512 E3.9039
G1 X147.05200000000002 Y112.512 E3.9283
G1 X141.526 Y106.98599999999999 E4.2090
; feature infill
; tool H0.200 W0.600
G1 X146.417 Y106.446 F6000
G92 E0.0000
G1 X141.513 Y101.542 E0.3114 F3600
G92 E0.0000
G1 E-7 F2400 ; custom retraction
; layer 8, Z = 1.600
; feature inner perimeter
; tool H0.200 W0.480
G1 Z1.800 F1200
G1 X147.969 Y97.2 F6000
G1 Z1.600 F1200
G1 E0 F2400 ; custom un-retraction/prime
G92 E0.0000
G1 X148.397 Y97.22200000000001 E0.0154 F2700
G1 X148.79000000000002 Y97.285 E0.0297
G1 X149.174 Y97.388 E0.0440
G1 X149.54500000000002 Y97.53 E0.0583
G1 X149.899 Y97.71000000000001 E0.0725
G1 X150.233 Y97.92699999999999 E0.0868
G1 X150.542 Y98.17699999999999 E0.1011
G1 X150.82299999999998 Y98.458 E0.1154
G1 X151.07299999999998 Y98.767 E0.1296
G1 X151.29000000000002 Y99.101 E0.1440
G1 X151.47 Y99.455 E0.1582
G1 X151.612 Y99.826 E0.1725
G1 X151.716 Y100.211 E0.1868
G1 X151.77800000000002 Y100.60300000000001 E0.2011
G1 X151.8 Y101.031 E0.2165
G1 X151.8 Y108.969 E0.5016
G1 X151.77800000000002 Y109.39699999999999 E0.5170
G1 X151.716 Y109.789 E0.5313
G1 X151.612 Y110.174 E0.5456
G1 X151.47 Y110.545 E0.5599
G1 X151.29000000000002 Y110.899 E0.5741
G1 X151.07299999999998 Y111.233 E0.5884
G1 X150.82299999999998 Y111.542 E0.6027
G1 X150.542 Y111.82300000000001 E0.6170
G1 X150.233 Y112.07300000000001 E0.6312
G1 X149.899 Y112.28999999999999 E0.6455
G1 X149.54500000000002 Y112.47 E0.6598
G1 X149.174 Y112.612 E0.6741
G1 X148.79000000000002 Y112.715 E0.6884
G1 X148.397 Y112.77799999999999 E0.7027
G1 X147.969 Y112.8 E0.7181
G1 X107.901 Y112.793 E2.1574
G1 X107.60300000000001 Y112.77799999999999 E2.1681
G1 X107.21000000000001 Y112.715 E2.1823
G1 X106.826 Y112.612 E2.1966
G1 X106.455 Y112.47 E2.2109
G1 X106.101 Y112.289 E2.2252
G1 X105.767 Y112.07300000000001 E2.2395
G1 X105.458 Y111.82300000000001 E2.2538
G1 X105.17699999999999 Y111.542 E2.2680
G1 X104.92699999999999 Y111.233 E2.2823
G1 X104.711 Y110.899 E2.2966
G1 X104.53 Y110.545 E2.3109
G1 X104.388 Y110.174 E2.3252
G1 X104.285 Y109.78999999999999 E2.3394
G1 X104.22200000000001 Y109.39699999999999 E2.3537
G1 X104.2 Y108.969 E2.3691
G1 X104.2 Y101.031 E2.6542
G1 X104.22200000000001 Y100.60300000000001 E2.6697
G1 X104.285 Y100.21000000000001 E2.6839
G1 X104.388 Y99.826 E2.6982
G1 X104.53 Y99.455 E2.7125
G1 X104.711 Y99.101 E2.7268
G1 X104.92699999999999 Y98.767 E2.7411
G1 X105.17699999999999 Y98.458 E2.7554
G1 X105.458 Y98.17699999999999 E2.7696
G1 X105.767 Y97.92699999999999 E2.7839
G1 X106.101 Y97.711 E2.7982
G1 X106.455 Y97.53 E2.8125
G1 X106.826 Y97.388 E2.8268
G1 X107.21000000000001 Y97.285 E2.8410
G1 X107.60300000000001 Y97.22200000000001 E2.8553
G1 X108.031 Y97.2 E2.8707
G1 X147.969 Y97.2 E4.3053
G1 X147.981 Y96.72 F6000
G92 E0.0000
G1 X148.44799999999998 Y96.744 E0.0168 F2700
G1 X148.89 Y96.814 E0.0329
G1 X149.322 Y96.93 E0.0489
G1 X149.74099999999999 Y97.09100000000001 E0.0650
G1 X150.139 Y97.294 E0.0811
G1 X150.515 Y97.538 E0.0972
G1 X150.864 Y97.82 E0.1133
G1 X151.18 Y98.137 E0.1294
G1 X151.462 Y98.485 E0.1455
G1 X151.70600000000002 Y98.86099999999999 E0.1616
G1 X151.909 Y99.259 E0.1777
G1 X152.06900000000002 Y99.678 E0.1937
G1 X152.186 Y100.11099999999999 E0.2098
G1 X152.256 Y100.553 E0.2259
G1 X152.28 Y101.019 E0.2427
G1 X152.28 Y108.981 E0.5287
G1 X152.256 Y109.447 E0.5455
G1 X152.186 Y109.88900000000001 E0.5615
G1 X152.06900000000002 Y110.322 E0.5777
G1 X151.909 Y110.741 E0.5937
G1 X151.70600000000002 Y111.13900000000001 E0.6098
G1 X151.462 Y111.515 E0.6259
G1 X151.18 Y111.863 E0.6420
G1 X150.864 Y112.18 E0.6581
G1 X150.515 Y112.462 E0.6742
G1 X150.139 Y112.706 E0.6903
G1 X149.74099999999999 Y112.90899999999999 E0.7063
G1 X149.322 Y113.07 E0.7225
G1 X148.89 Y113.186 E0.7385
G1 X148.44799999999998 Y113.256 E0.7546
G1 X147.981 Y113.28 E0.7714
G1 X107.888 Y113.273 E2.2116
G1 X107.553 Y113.256 E2.2236
G1 X107.11 Y113.186 E2.2397
G1 X106.678 Y113.07 E2.2558
G1 X106.26 Y112.90899999999999 E2.2719
G1 X105.86 Y112.706 E2.2880
G1 X105.485 Y112.462 E2.3041
G1 X105.137 Y112.18 E2.3202
G1 X104.82 Y111.863 E2.3363
G1 X104.538 Y111.515 E2.3523
G1 X104.294 Y111.14 E2.3684
G1 X104.09100000000001 Y110.74000000000001 E2.3845
G1 X103.93 Y110.322 E2.4006
G1 X103.815 Y109.89 E2.4167
G1 X103.744 Y109.447 E2.4328
G1 X103.72 Y108.981 E2.4496
G1 X103.72 Y101.019 E2.7356
G1 X103.744 Y100.553 E2.7523
G1 X103.815 Y100.11 E2.7684
G1 X103.93 Y99.678 E2.7845
G1 X104.09100000000001 Y99.25999999999999 E2.8006
G1 X104.294 Y98.86 E2.8167
G1 X104.538 Y98.485 E2.8328
G1 X104.82 Y98.137 E2.8489
G1 X105.137 Y97.82 E2.8650
G1 X105.485 Y97.538 E2.8810
G1 X105.86 Y97.294 E2.8971
G1 X106.26 Y97.09100000000001 E2.9132
G1 X106.678 Y96.93 E2.9293
G1 X107.11 Y96.815 E2.9454
G1 X107.553 Y96.744 E2.9615
G1 X108.019 Y96.72 E2.9783
G1 X147.981 Y96.72 E4.4137
; feature outer perimeter
G1 X147.994 Y96.24000000000001 F6000
G92 E0.0000
G1 X148.498 Y96.26599999999999 E0.0181 F1800
G1 X148.99 Y96.344 E0.0360
G1 X149.471 Y96.473 E0.0539
G1 X149.936 Y96.652 E0.0718
G1 X150.38 Y96.878 E0.0897
G1 X150.798 Y97.149 E0.1076
G1 X151.185 Y97.463 E0.1255
G1 X151.537 Y97.815 E0.1434
G1 X151.85 Y98.202 E0.1613
G1 X152.122 Y98.62 E0.1792
G1 X152.348 Y99.064 E0.1971
G1 X152.526 Y99.529 E0.2150
G1 X152.656 Y100.011 E0.2329
G1 X152.73399999999998 Y100.50200000000001 E0.2508
G1 X152.76 Y101.006 E0.2689
G1 X152.76 Y108.994 E0.5558
G1 X152.73399999999998 Y109.49799999999999 E0.5739
G1 X152.656 Y109.989 E0.5918
G1 X152.526 Y110.471 E0.6097
G1 X152.348 Y110.936 E0.6276
G1 X152.122 Y111.38 E0.6455
G1 X151.851 Y111.798 E0.6634
G1 X151.537 Y112.185 E0.6813
G1 X151.185 Y112.537 E0.6992
G1 X150.798 Y112.851 E0.7171
G1 X150.38 Y113.122 E0.7350
G1 X149.936 Y113.348 E0.7529
G1 X149.471 Y113.527 E0.7708
G1 X148.99 Y113.656 E0.7887
G1 X148.498 Y113.73400000000001 E0.8066
G1 X147.994 Y113.75999999999999 E0.8247
G1 X107.876 Y113.753 E2.2658
G1 X107.503 Y113.73400000000001 E2.2792
G1 X107.01 Y113.656 E2.2971
G1 X106.529 Y113.527 E2.3150
G1 X106.064 Y113.348 E2.3329
G1 X105.62 Y113.122 E2.3508
G1 X105.202 Y112.851 E2.3687
G1 X104.815 Y112.537 E2.3866
G1 X104.463 Y112.185 E2.4045
G1 X104.149 Y111.798 E2.4224
G1 X103.878 Y111.38 E2.4403
G1 X103.652 Y110.936 E2.4582
G1 X103.473 Y110.471 E2.4761
G1 X103.344 Y109.99000000000001 E2.4940
G1 X103.26599999999999 Y109.49799999999999 E2.5119
G1 X103.24 Y108.994 E2.5300
G1 X103.24 Y101.006 E2.8169
G1 X103.26599999999999 Y100.50200000000001 E2.8350
G1 X103.344 Y100.00999999999999 E2.8529
G1 X103.473 Y99.529 E2.8708
G1 X103.652 Y99.064 E2.8887
G1 X103.878 Y98.62 E2.9066
G1 X104.149 Y98.202 E2.9245
G1 X104.463 Y97.815 E2.9424
G1 X104.815 Y97.463 E2.9603
G1 X105.202 Y97.149 E2.9782
G1 X105.62 Y96.878 E2.9961
G1 X106.064 Y96.652 E3.0140
G1 X106.529 Y96.473 E3.0319
G1 X107.01 Y96.344 E3.0498
G1 X107.503 Y96.26599999999999 E3.0677
G1 X108.006 Y96.24000000000001 E3.0858
G1 X147.994 Y96.24000000000001 E4.5222
; feature solid layer
G1 X141.501 Y101.00200000000001 F6000
G92 E0.0000
G1 X145.01600000000002 Y97.488 E0.1785 F2880
G1 X145.69400000000002 Y97.488 E0.2029
G1 X142.18 Y101.00200000000001 E0.3814
G1 X142.85899999999998 Y101.00200000000001 E0.4058
G1 X146.373 Y97.488 E0.5843
G1 X147.05200000000002 Y97.488 E0.6087
G1 X143.538 Y101.00200000000001 E0.7872
G1 X144.21699999999998 Y101.00200000000001 E0.8116
G1 X147.731 Y97.488 E0.9901
G1 X147.961 Y97.488 E0.9984
G1 X148.09699999999998 Y97.495 E1.0033
G1 X148.36700000000002 Y97.509 E1.0130
G1 X148.385 Y97.512 E1.0137
G1 X144.89499999999998 Y101.00200000000001 E1.1910
G1 X145.574 Y101.00200000000001 E1.2154
G1 X148.951 Y97.626 E1.3869
G1 X149.08499999999998 Y97.662 E1.3919
G1 X149.428 Y97.794 E1.4051
G1 X149.45 Y97.805 E1.4060
G1 X146.253 Y101.00200000000001 E1.5684
G1 X146.93200000000002 Y101.00200000000001 E1.5928
G1 X149.888 Y98.04599999999999 E1.7429
G1 X150.063 Y98.161 E1.7505
G1 X150.27800000000002 Y98.33500000000001 E1.7604
G1 X146.99200000000002 Y101.62100000000001 E1.9273
G1 X146.99200000000002 Y102.3 E1.9517
G1 X150.623 Y98.669 E2.1362
G1 X150.74599999999998 Y98.822 E2.1432
G1 X150.839 Y98.936 E2.1485
G1 X150.916 Y99.055 E2.1536
G1 X146.99200000000002 Y102.979 E2.3529
G1 X146.99200000000002 Y103.657 E2.3773
G1 X151.163 Y99.487 E2.5892
G1 X151.207 Y99.572 E2.5926
G1 X151.338 Y99.91499999999999 E2.6058
G1 X151.35399999999998 Y99.97399999999999 E2.6080
G1 X146.99200000000002 Y104.336 E2.8296
G1 X146.99200000000002 Y105.015 E2.8540
G1 X151.475 Y100.532 E3.0817
G1 X151.49099999999999 Y100.63300000000001 E3.0854
G1 X151.512 Y101.038 E3.1000
G1 X151.512 Y101.174 E3.1049
G1 X146.99200000000002 Y105.694 E3.3345
G1 X151.28300000000002 Y110.227 F6000
G92 E0.0000
G1 X149.227 Y112.28399999999999 E0.1045 F2880
G1 X149.08499999999998 Y112.338 E0.1099
G1 X148.73000000000002 Y112.43299999999999 E0.1231
G1 X148.36700000000002 Y112.491 E0.1363
G1 X148.34 Y112.49199999999999 E0.1373
G1 X151.49200000000002 Y109.339 E0.2975
G1 X151.512 Y108.962 E0.3111
G1 X151.512 Y108.64099999999999 E0.3226
G1 X147.64100000000002 Y112.512 E0.5192
G1 X146.962 Y112.512 E0.5436
G1 X151.512 Y107.962 E0.7747
G1 X151.512 Y107.283 E0.7991
G1 X146.284 Y112.512 E1.0647
G1 X145.60500000000002 Y112.512 E1.0891
G1 X151.512 Y106.604 E1.3892
G1 X151.512 Y105.926 E1.4136
G1 X144.926 Y112.511 E1.7481
G1 X144.247 Y112.511 E1.7725
G1 X151.512 Y105.247 E2.1415
G1 X151.512 Y104.568 E2.1659
G1 X143.56900000000002 Y112.511 E2.5694
G1 X142.89 Y112.511 E2.5938
G1 X151.512 Y103.88900000000001 E3.0318
G1 X151.512 Y103.21000000000001 E3.0562
G1 X142.211 Y112.511 E3.5287
G1 X141.53300000000002 Y112.511 E3.5531
G1 X151.512 Y102.532 E4.0600
G1 X151.512 Y101.85300000000001 E4.0844
G1 X146.99200000000002 Y106.37299999999999 E4.3140
G1 X146.99200000000002 Y106.98599999999999 E4.3360
G1 X146.37900000000002 Y106.98599999999999 E4.3581
G1 X140.85399999999998 Y112.511 E4.6387
G1 X140.175 Y112.511 E4.6631
G1 X145.7 Y106.98599999999999 E4.9437
G1 X145.02100000000002 Y106.98599999999999 E4.9681
G1 X139.497 Y112.511 E5.2488
G1 X138.81799999999998 Y112.50999999999999 E5.2731
G1 X144.34199999999998 Y106.98599999999999 E5.5538
G1 X143.663 Y106.98599999999999 E5.5782
G1 X138.139 Y112.50999999999999 E5.8588
G1 X137.46 Y112.50999999999999 E5.8832
G1 X142.98399999999998 Y106.98599999999999 E6.1638
G1 X142.30599999999998 Y106.98599999999999 E6.1882
G1 X136.78199999999998 Y112.50999999999999 E6.4688
G1 X136.103 Y112.50999999999999 E6.4932
G1 X141.627 Y106.98599999999999 E6.7738
G1 X140.948 Y106.98599999999999 E6.7982
G1 X135.424 Y112.50999999999999 E7.0788
G1 X134.746 Y112.50999999999999 E7.1031
G1 X140.637 Y106.618 E7.4024
G1 X140.637 Y105.939 E7.4268
G1 X134.067 Y112.50999999999999 E7.7606
G1 X133.388 Y112.509 E7.7849
G1 X140.637 Y105.261 E8.1532
G1 X140.637 Y104.582 E8.1776
G1 X132.709 Y112.509 E8.5803
G1 X132.031 Y112.509 E8.6047
G1 X140.637 Y103.90299999999999 E9.0419
G1 X140.637 Y103.22399999999999 E9.0663
G1 X131.352 Y112.509 E9.5379
G1 X130.673 Y112.509 E9.5623
G1 X140.637 Y102.545 E10.0685
G1 X140.637 Y101.866 E10.0929
G1 X129.995 Y112.509 E10.6335
G1 X129.316 Y112.509 E10.6579
G1 X140.637 Y101.188 E11.2330
G1 X140.637 Y101.00200000000001 E11.2397
G1 X140.823 Y101.00200000000001 E11.2463
G1 X144.337 Y97.488 E11.4248
G1 X143.65800000000002 Y97.488 E11.4492
G1 X128.637 Y112.509 E12.2123
G1 X127.959 Y112.509 E12.2366
G1 X142.97899999999998 Y97.488 E12.9997
G1 X142.3 Y97.488 E13.0241
G1 X127.28 Y112.50800000000001 E13.7871
G1 X126.601 Y112.50800000000001 E13.8115
G1 X141.621 Y97.488 E14.5745
G1 X140.94299999999998 Y97.488 E14.5989
G1 X125.922 Y112.50800000000001 E15.3619
G1 X125.244 Y112.50800000000001 E15.3863
G1 X140.264 Y97.488 E16.1493
G1 X139.585 Y97.488 E16.1737
G1 X124.565 Y112.50800000000001 E16.9367
G1 X123.928 Y112.50800000000001 E16.9596
G1 X123.886 Y112.50800000000001 E16.9611
G1 X138.906 Y97.488 E17.7241
G1 X138.227 Y97.488 E17.7485
G1 X123.208 Y112.50800000000001 E18.5115
G1 X122.529 Y112.50800000000001 E18.5359
G1 X137.549 Y97.488 E19.2989
G1 X136.87 Y97.488 E19.3233
G1 X121.85 Y112.50800000000001 E20.0863
G1 X121.17099999999999 Y112.507 E20.1106
G1 X136.191 Y97.488 E20.8736
G1 X135.512 Y97.488 E20.8980
G1 X120.493 Y112.507 E21.6610
G1 X119.814 Y112.507 E21.6854
G1 X134.833 Y97.488 E22.4483
G1 X134.154 Y97.488 E22.4727
G1 X119.13499999999999 Y112.507 E23.2357
G1 X118.457 Y112.507 E23.2601
G1 X133.476 Y97.488 E24.0230
G1 X132.797 Y97.488 E24.0474
G1 X117.77799999999999 Y112.507 E24.8104
G1 X117.09899999999999 Y112.507 E24.8347
G1 X132.118 Y97.488 E25.5977
G1 X131.439 Y97.488 E25.6221
G1 X116.42 Y112.507 E26.3850
G1 X115.74199999999999 Y112.506 E26.4094
G1 X130.76 Y97.488 E27.1723
G1 X130.08100000000002 Y97.488 E27.1967
G1 X115.063 Y112.506 E27.9597
G1 X114.384 Y112.506 E27.9840
G1 X129.403 Y97.488 E28.7470
G1 X128.724 Y97.488 E28.7713
G1 X113.706 Y112.506 E29.5343
G1 X113.027 Y112.506 E29.5586
G1 X128.04500000000002 Y97.488 E30.3216
G1 X127.366 Y97.488 E30.3459
G1 X112.348 Y112.506 E31.1088
G1 X111.67 Y112.506 E31.1332
G1 X126.687 Y97.488 E31.8961
G1 X126.009 Y97.488 E31.9205
G1 X110.991 Y112.506 E32.6834
G1 X110.312 Y112.506 E32.7078
